!!!COM: Beethoven, Ludwig van
!!!CDT: 1770///-1827///
!!!ODT: 1798///-1800///
!!!OTL: String Quartet No. 4 in C Minor, Op. 18, No. 4
!!!OPS: Op. 18
!!!ONM: No. 4
!!!OMV: Mvmt. 1
!!!OMD: Allegro ma non tanto
!!!PDT: 1801///
!!!PPP: Vienna
!!!PPR: C. Haslinger qm Tobias
!!!ODE: Dem F&uuml;rsten von Lobkowitz gewidmet
!!!MPD: 1798///-1800///
**kern	**dynam	**kern	**dynam	**kern	**dynam	**kern	**dynam
*staff4	*staff4	*staff3	*staff3	*staff2	*staff2	*staff1	*staff1
*Icello	*Icello	*Iviola	*Iviola	*Ivioln	*Ivioln	*Ivioln	*Ivioln
*>[I,A,A1,A,A2,B]	*>[I,A,A1,A,A2,B]	*>[I,A,A1,A,A2,B]	*>[I,A,A1,A,A2,B]	*>[I,A,A1,A,A2,B]	*>[I,A,A1,A,A2,B]	*>[I,A,A1,A,A2,B]	*>[I,A,A1,A,A2,B]
*>norep[I,A,A2,B]	*>norep[I,A,A2,B]	*>norep[I,A,A2,B]	*>norep[I,A,A2,B]	*>norep[I,A,A2,B]	*>norep[I,A,A2,B]	*>norep[I,A,A2,B]	*>norep[I,A,A2,B]
*>I	*>I	*>I	*>I	*>I	*>I	*>I	*>I
*clefF4	*clefF4	*clefC3	*clefC3	*clefG2	*clefG2	*clefG2	*clefG2
*k[b-e-a-]	*k[b-e-a-]	*k[b-e-a-]	*k[b-e-a-]	*k[b-e-a-]	*k[b-e-a-]	*k[b-e-a-]	*k[b-e-a-]
*c:	*c:	*c:	*c:	*c:	*c:	*c:	*c:
*M4/4	*M4/4	*M4/4	*M4/4	*M4/4	*M4/4	*M4/4	*M4/4
*MM132	*MM132	*MM132	*MM132	*MM132	*MM132	*MM132	*MM132
4r	.	4r	.	4r	.	4G/	p
=1!|:	=1!|:	=1!|:	=1!|:	=1!|:	=1!|:	=1!|:	=1!|:
*>A	*>A	*>A	*>A	*>A	*>A	*>A	*>A
8CC/L	p	2.E-/	p	2.G/	p	[2c/	.
8C/	.	.	.	.	.	.	.
8C/	.	.	.	.	.	.	.
8C/J	.	.	.	.	.	.	.
8C/L	.	.	.	.	.	8c/L]	.
.	.	.	.	.	.	(dq\	.
.	.	.	.	.	.	cq\)	.
.	.	.	.	.	.	Bnq\	.
8C/	.	.	.	.	.	8c/	.
8C/	.	4F/)	.	4Bn/)	.	8e-/	.
8C/J	.	.	.	.	.	&(8d/J&)	.
=2	=2	=2	=2	=2	=2	=2	=2
8C/L	.	(4.A-/	.	(2Bn/	.	(2d/	.
8C/	.	.	.	.	.	.	.
8C/	.	.	.	.	.	.	.
8C/J	.	8F/)	.	.	.	.	.
8C/L	.	4E-/	.	4G/)	.	4c/)	.
8C/	.	.	.	.	.	.	.
8C/	.	4r	.	4r	.	4c/	.
8C/J	.	.	.	.	.	.	.
=3	=3	=3	=3	=3	=3	=3	=3
8CC/L	.	(2.A-/	.	(2.c/	.	[2f/	.
8C/	.	.	.	.	.	.	.
8C/	.	.	.	.	.	.	.
8C/J	.	.	.	.	.	.	.
8C/L	.	.	.	.	.	8f/L]	.
.	.	.	.	.	.	(gq\	.
.	.	.	.	.	.	fq\)	.
.	.	.	.	.	.	enq\	.
8C/	.	.	.	.	.	8f/	.
8C/	.	4B-/)	.	4en/)	.	8a-/	.
8C/J	.	.	.	.	.	&(8g/J&)	.
=4	=4	=4	=4	=4	=4	=4	=4
8C/L	.	(4.d-\	.	(2en/	.	(2g/	.
8C/	.	.	.	.	.	.	.
8C/	.	.	.	.	.	.	.
8C/J	.	8B-/)	.	.	.	.	.
8C/L	.	4A-/	.	4c/)	.	4f/)	.
8C/	.	.	.	.	.	.	.
8C/	.	4r	.	4r	.	4f/	.
8C/J	.	.	.	.	.	.	.
=5	=5	=5	=5	=5	=5	=5	=5
8CC/L	.	4r	.	4r	.	(8f/L	.
8C/	.	.	.	.	.	8dd/J)	.
8C/	.	(2A-/	.	(2f/	.	(2dd\	.
8C/J	.	.	.	.	.	.	.
8C/L	.	.	.	.	.	.	.
8C/	.	.	.	.	.	.	.
8C/	.	4G/)	.	4e-/)	.	4cc\)	.
8C/J	.	.	.	.	.	.	.
=6	=6	=6	=6	=6	=6	=6	=6
8CC/L	.	(8F/L	.	(8d/L	.	(8bn\L	.
8C/	.	8Bn/J	.	8a-/J	.	8ff\J)	.
8C/	.	2Bn/	.	2a-/	.	(2ff\	.
8C/J	.	.	.	.	.	.	.
8C/L	.	.	.	.	.	.	.
8C/	.	.	.	.	.	.	.
8C/	.	&(4c\&)	.	&(4g/&)	.	4ee-\)	.
8C/J	.	.	.	.	.	.	.
=7	=7	=7	=7	=7	=7	=7	=7
8F\L	.	8f\L	.	8a-/L	.	(8ee-\L	.
8F\	.	8f\	.	8a-/	.	8dd\J)	.
8A-\	.	8e-\	.	8f#/	.	(2cc\	.
8A-\J	.	8e-\J	.	8f#/J	.	.	.
8F#\L	.	8e-\L	.	8an/L	.	.	.
8F#\	.	8e-\	.	8an/	.	.	.
8G\	.	8d\	.	8f/	.	4bn\)	.
8G\J	.	8d\J	.	8f/J	.	.	.
=8	=8	=8	=8	=8	=8	=8	=8
8E-/L	.	8G/L	.	8g/L	.	(4.cc\	.
8E-/	.	8G/	.	8g/	.	.	.
(8E-/	.	8G/	.	8g/	.	.	.
8BBn/J)	.	8f/J)	.	8g/J	.	8dd\	.
8C\L	.	8e-/L	.	8g/L	.	4ee-\)	.
8G\	.	8G/	.	8g/	.	.	.
8E-\	.	8E-/	.	8e-/	.	8r	.
8C\J	.	8C/J	.	8c/J	.	8cc\	.
=9	=9	=9	=9	=9	=9	=9	=9
8GG/L	.	8G/L	.	8G/L	.	(8bn\L	.
8F/	.	8Bn/	.	8d/	.	8aa-\J)	.
8F/	.	8Bn/	.	8d/	.	(2aa-\	.
8F/J	.	8Bn/J	.	8d/J	.	.	.
8F\L	.	8Bn/L	.	8d/L	.	.	.
8F\	.	8Bn/	.	8d/	.	.	.
8E-\	.	8c/	.	8e-/	.	4gg\)	.
8E-\J	.	8c/J	.	8e-/J	.	.	.
=10	=10	=10	=10	=10	=10	=10	=10
8r	.	8r	.	8r	.	(8ff\L	.
8BBn/L	.	8G/L	.	8d/L	.	8fff\J)	.
8BBn/	.	8G/	.	8dd/	.	(2fff\	.
8BBn/J	.	8G/J	.	8dd/J	.	.	.
8BBn/L	.	8G/L	.	8dd\L	.	.	.
8BBn/	.	8G/	.	8dd\	.	.	.
8C/	.	8G/	.	8ee-\	.	4eee-\)	.
8C/J	.	8G/J	.	8ee-\J	.	.	.
=11	=11	=11	=11	=11	=11	=11	=11
8FF/L	<	8A-\L	<	4ee-\	<	(4eee-\	<
8F/	<	8c\ 8a-\	<	.	.	.	.
8F/	.	8c\ 8a-\	.	[4dd\	<	[4ddd\)	<
8F/J	.	8c\J 8a-\	.	.	.	.	.
8A-\L	.	8c\L 8f\	.	8dd\L]	.	8ddd\L]	.
8A-\	.	8c\ 8f\	.	8dd\	.	(8ddd\	.
8F\	.	8c\ 8a-\	.	8ff\	.	8fff\	.
8F\J	.	8c\J 8a-\	.	&(8dd\J&)	.	8ddd\J)	.
=12	=12	=12	=12	=12	=12	=12	=12
8F#\L	.	8c\L 8an\	.	4dd\	.	(4ddd\	.
8F#\	.	8c\ 8an\	.	.	.	.	.
8A-\	.	8f#\	.	2e-/ 2cc/	.	2ccc\	.
8A-\J	.	8f#\J	.	.	.	.	.
8G/L	.	8g\L	.	.	.	.	.
8G/	.	8g\	.	.	.	.	.
8GG/	.	8G\ 8f\	.	4d/) 4bn/	.	4bbn\)	.
8GG/J	.	8G\J 8f\	.	.	.	.	.
=13	=13	=13	=13	=13	=13	=13	=13
4C/	ff	4G/ 4e-/	ff	4G/ 4e-/ 4cc/	ff	4ccc\	ff
4r	.	4r	.	4r	.	4r	.
4GG/	.	4G\ 4g\	.	4G/ 4d/ 4bn/	.	2r	.
4r	.	4r	.	4r	.	.	.
=14	=14	=14	=14	=14	=14	=14	=14
4C/	.	4G\ 4g\	.	4G/ 4e-/ 4cc/	.	2r	.
4GG/	.	4G\ 4g\	.	4G/ 4d/ 4bn/	.	.	.
4C/	.	4G\ 4g\	.	4G/ 4e-/ 4cc/	.	4r	.
4r	.	4r	.	4r	.	4g\ 4ee-\ 4ccc\	ff
=15	=15	=15	=15	=15	=15	=15	=15
4GG/	.	4G\ 4g\	.	4G/ 4d/ 4bn/	.	1r	.
4r	.	4r	.	4r	.	.	.
4C/	.	4G\ 4g\	.	4G/ 4e-/ 4cc/	.	.	.
4r	.	4r	.	4r	.	.	.
=16	=16	=16	=16	=16	=16	=16	=16
4GG/	.	4G\ 4g\	.	4G/ 4d/ 4bn/	.	2r	.
4C/	.	4G\ 4g\	.	4G/ 4e-/ 4cc/	.	.	.
4GG/	.	4G\ 4g\	.	4G/ 4d/ 4bn/	.	4r	.
4r	.	4r	.	4r	.	4g\ 4dd\ 4bbn\	ff
=17	=17	=17	=17	=17	=17	=17	=17
(2E-\	ff	4r	.	4r	.	(8gg\L	.
.	.	.	.	.	.	8ggg\J)	.
.	.	(4G/	ff	(4g/	ff	2ggg\	.
2D\	.	4An/	.	4an/	.	.	.
.	.	4Bn/)	.	4bn\)	.	[4fff\	.
=18	=18	=18	=18	=18	=18	=18	=18
2C/	.	(4c\	.	(4cc\	.	4fff\]	.
.	.	4E-/	.	4e-/	.	2eee-\	.
2BB-/)	.	4F/	.	4f/	.	.	.
.	.	4G/)	.	4g/)	.	[4ddd-\	.
=19	=19	=19	=19	=19	=19	=19	=19
2.AA-/	.	(4A-/	.	(4a-/	.	(8ddd-\L]	.
.	.	.	.	.	.	8ccc\)	.
.	.	4E-/	.	4e-/	.	(8ccc\	.
.	.	.	.	.	.	8bb-\J)	.
.	.	4C/	.	4c/	.	(8bb-\L	.
.	.	.	.	.	.	8aa-\)	.
4AA-/	.	4c\)	.	4cc\)	.	8gg\	.
.	.	.	.	.	.	8ff#\J	.
=20	=20	=20	=20	=20	=20	=20	=20
8GG/L	f	8Bn/L	f	8bn/L	f	4gg\	.
8G/	p	8Bn/	p	8d/	p	.	.
8G/	.	8Bn/	.	8d/	.	4r	.
8G/J	.	8Bn/J	.	8d/J	.	.	.
8G\L	.	8Bn/L	.	8d/L	.	8r	.
8G\	.	8Bn/	.	8d/	.	(8g\L	p
8G\	.	8Bn/	.	8d/	.	8gg\	.
8G\J	.	8Bn/J	.	8d/J	.	8ff\J)	.
=21	=21	=21	=21	=21	=21	=21	=21
8GG/L	.	8r	.	8r	.	8ff\L	.
8G/	.	8c\L	.	8e-/L	.	8ee-\	.
8G/	.	8c\	.	8e-/	.	8dd\	.
8G/J	.	8c\J	.	8e-/J	.	8cc\J	.
8G\L	.	8c\L	.	8e-/L	.	8b-/L	.
8G\	.	8c\	.	8e-/	.	8a-/	.
8G\	.	8c\	.	8e-/	.	8g/	.
8G\J	.	8c\J	.	8e-/J	.	8f#/J	.
=22	=22	=22	=22	=22	=22	=22	=22
8GG/L	.	8r	.	8r	.	(4an/	.
8G/	.	8Bn/L	.	8d/L	.	.	.
8G/	.	8Bn/	.	8d/	.	4g/)	.
8G/J	.	8Bn/J	.	8d/J	.	.	.
8G\L	.	8Bn/L	.	8d/L	.	8r	.
8G\	.	8Bn/	.	8d/	.	(8g\L	.
8G\	.	8Bn/	.	8d/	.	8gg\	.
8G\J	.	8Bn/J	.	8d/J	.	8ff\J)	.
=23	=23	=23	=23	=23	=23	=23	=23
8GG/L	.	8r	.	8r	.	(8ff\L	.
8G/	.	8c\L	.	8e-/L	.	8ee-\)	.
8G/	.	8c\	.	8e-/	.	8dd\	.
8G/J	.	8c\J	.	8e-/J	.	8cc\J	.
8G\L	.	8c\L	.	8e-/L	.	8b-/L	.
8G\	.	8c\	.	8e-/	.	8a-/	.
8G\	.	8c\	.	8e-/	.	8g/	.
8G\J	.	8c\J	.	8e-/J	.	8f#/J	.
=24	=24	=24	=24	=24	=24	=24	=24
4GG/	.	8r	.	8r	.	(8an/L	.
.	.	8Bn/L	.	8G/L 8d/	.	8g/)	.
4C/	.	8c/	.	8G/ 8e-/	.	16r	.
.	.	.	.	.	.	16dd/L	.
.	.	8c/	.	8G/ 8e-/	.	16ee-/	.
.	.	.	.	.	.	16f#/JJ	.
4GG/	.	8r	.	8r	.	(8an/L	.
.	.	8Bn/	.	8G/ 8d/	.	8g/)	.
4C/	.	8c/	.	8G/ 8e-/	.	16r	.
.	.	.	.	.	.	16dd/L	.
.	.	8c/J	.	8G/J 8e-/	.	16ee-/	.
.	.	.	.	.	.	16f#/JJ	.
=25	=25	=25	=25	=25	=25	=25	=25
4GG/ 4G/	ff	4Bn/	ff	4G/ 4d/	ff	4g/	ff
4GG/ 4G/	.	4G\ 4g\	.	4G/ 4d/ 4bn/	.	4G/ 4d/ 4bn/ 4gg/	.
2r	.	2r	.	2r	.	2r	.
=26	=26	=26	=26	=26	=26	=26	=26
4E-\	f	[1E-	.	[1e-	f	4.e-/	f
4D-\	f	.	.	.	.	.	.
.	.	.	.	.	.	8gg\	p
4C/	.	.	.	.	.	(8aa-\L	.
.	.	.	.	.	.	8ee-\)	.
4GG/	.	.	.	.	.	8r	.
.	.	.	.	.	.	8dd-\J	.
=27	=27	=27	=27	=27	=27	=27	=27
4AA-/	.	1E-_	p	4.e-/]	p	(8cc\L	.
.	.	.	.	.	.	8ee-\J)	.
4D-\	.	.	.	.	.	4r	.
.	.	.	.	8g/	.	.	.
4C/	.	.	.	(8a-/L	.	2r	.
.	.	.	.	8e-/)	.	.	.
4GG/	.	.	.	8r	.	.	.
.	.	.	.	8d-/J	.	.	.
=28	=28	=28	=28	=28	=28	=28	=28
4AA-/	.	4E-/]	.	(8c/L	.	4r	.
.	.	.	.	8e-/J)	.	.	.
(4GG/	.	4B-/	.	4r	.	8r	.
.	.	.	.	.	.	8dd-\	.
4AA-/)	.	4E-/	.	2r	.	(8cc\L	.
.	.	.	.	.	.	8ee-\)	.
[4GG/	.	[4B-/	.	.	.	8r	.
.	.	.	.	.	.	8dd-\J	.
=29	=29	=29	=29	=29	=29	=29	=29
.	.	.	.	.	.	(ccq\	.
.	.	.	.	.	.	dd-q\	.
.	.	.	.	.	.	ee-q\	.
2.GG/]	.	4B-/]	.	8r	.	2dd-\	.
.	.	.	.	(8g/L	.	.	.
.	.	4E-/	.	8a-/	.	.	.
.	.	.	.	8g/J	.	.	.
.	.	4A-/	.	4a-/)	.	4cc\)	.
4r	.	4r	.	4r	.	4r	.
=30	=30	=30	=30	=30	=30	=30	=30
4C/	f	[1C	.	[1c	.	4.c/	f
4B-\	.	.	.	.	.	.	.
.	.	.	.	.	.	8een\	p
4A-\	p	.	.	.	.	8ff\L	.
.	.	.	.	.	.	8cc\	.
4En\	.	.	.	.	.	8r	.
.	.	.	.	.	.	8b-\J	.
=31	=31	=31	=31	=31	=31	=31	=31
4F\	.	1C_	f	4.c/]	p	(8a-\L	.
.	.	.	.	.	.	8cc\J)	.
4BB-/	.	.	.	.	.	4r	.
.	.	.	.	8en/	.	.	.
4AA-/	.	.	.	(8f/L	.	2r	.
.	.	.	.	8c/)	.	.	.
4EEn/	.	.	.	8r	.	.	.
.	.	.	.	8B-/J	.	.	.
=32	=32	=32	=32	=32	=32	=32	=32
4FF/	.	4C/]	.	(8A-/L	.	4r	.
.	.	.	.	8c/J)	.	.	.
4EEn/	.	2c\	.	4r	.	8r	.
.	.	.	.	.	.	8b-\	.
4FF/	.	.	.	2r	.	(8a-\L	.
.	.	.	.	.	.	8aa-\)	.
4AA-/	.	[4c\	.	.	.	8r	.
.	.	.	.	.	.	8ff\J	.
=33	=33	=33	=33	=33	=33	=33	=33
2.BB-/	.	8c/L]	.	2r	.	(2ee-\	.
.	.	(8An/	<	.	.	.	.
.	.	8B-/	.	.	.	.	.
.	.	8An/J	.	.	.	.	.
.	.	8c/L	.	4r	.	4dd\)	.
.	.	8B-/	.	.	.	.	.
4r	.	8A-/	.	4B-/	p	4r	.
.	.	8F/J)	.	.	.	.	.
=34	=34	=34	=34	=34	=34	=34	=34
1r	.	8E-/L	p	(8B-/L	.	1r	.
.	.	8B-/	.	8g/J	.	.	.
.	.	8E-/	.	2g/	.	.	.
.	.	8B-/J	.	.	.	.	.
.	.	8A-/L	.	.	.	.	.
.	.	8B-/	.	.	.	.	.
.	.	8A-/	.	&(4f/&)	.	.	.
.	.	8B-/J	.	.	.	.	.
=35	=35	=35	=35	=35	=35	=35	=35
.	.	.	.	enq\	.	.	.
.	.	.	.	fq\)	.	.	.
.	.	.	.	gq\	.	.	.
4r	.	8A-/L	.	2f/	.	8r	.
.	.	8B-/	.	.	.	8bb-\L	p
4r	.	8A-/	.	.	.	8bb-\	.
.	.	8B-/J	.	.	.	8bb-\J	.
2r	.	8G/L	.	4e-/	.	(8aan\L	.
.	.	8B-/	.	.	.	8bb-\)	.
.	.	8E-/	.	4B-/	.	8gg\	.
.	.	8B-/J	.	.	.	8ee-\J	.
=36	=36	=36	=36	=36	=36	=36	=36
1r	.	8D/L	.	(8B-/L	.	4b-\	.
.	.	8B-/	.	8a-/J	.	.	.
.	.	8d/	.	2a-/	.	4r	.
.	.	8B-/J	.	.	.	.	.
.	.	8e-\L	.	.	.	2r	.
.	.	8B-\	.	.	.	.	.
.	.	8e-\	.	&(4g/&)	.	.	.
.	.	8An\J	.	.	.	.	.
=37	=37	=37	=37	=37	=37	=37	=37
.	.	.	.	fq\	.	.	.
.	.	.	.	gq\)	.	.	.
.	.	.	.	a-q\	.	.	.
1r	.	8e-\L	.	2g/	.	8r	.
.	.	8B-\	.	.	.	8bb-\L	.
.	.	8e-\	.	.	.	8bb-\	.
.	.	8B-\J	.	.	.	8bb-\J	.
.	.	8d/L	.	&(4f/&)	.	(8aan\L	.
.	.	8B-/	.	.	.	8bb-\	.
.	.	8d/	.	4B-/	.	8ccc\	.
.	.	8A-/J	.	.	.	8bb-\J)	.
=38	=38	=38	=38	=38	=38	=38	=38
1r	.	8G/L	.	(8B-/L	.	4bb-\	.
.	.	8B-/	.	8b-/J)	.	.	.
.	.	8G/	.	2b-\	.	(4bb-\	.
.	.	8B-/J	.	.	.	.	.
.	.	8F/L	.	.	.	4ccc\	.
.	.	8B-/	.	.	.	.	.
.	.	8F/	.	[4a-/	.	4ddd\	.
.	.	8B-/J	.	.	.	.	.
=39	=39	=39	=39	=39	=39	=39	=39
2r	.	8E-/L	.	4a-/]	.	4eee-\	.
.	.	8G/	.	.	.	.	.
.	.	8E-/	.	2g/	.	4gg\	.
.	.	8G/J	.	.	.	.	.
4GG/	p	8D/L	.	.	.	4aan\	.
.	.	8G/	.	.	.	.	.
4r	.	8D/	.	[4f/	.	4bbn\)	.
.	.	8G/J	.	.	.	.	.
=40	=40	=40	=40	=40	=40	=40	=40
4C/	.	8C/L	.	8f/L]	.	4ccc\	.
.	.	8G/	.	(8e-/	.	.	.
4r	.	8C/	.	8d/	.	(4ee-\	.
.	.	8E-/J	.	8c/J	.	.	.
4FF/	.	8C/L	.	8B-/L	.	4gg\	.
.	.	8E-/	.	8An/	.	.	.
4r	.	8C/	.	8e-/	.	4an/)	.
.	.	8E-/J	.	8An/J	.	.	.
=41	=41	=41	=41	=41	=41	=41	=41
(4BB-/	<	8D/L	<	2.B-/	<	(8cc\L	<
.	.	(8B-/	.	.	.	8b-\	.
4AA-/	.	8An/	.	.	.	8an\	.
.	.	8B-/J	.	.	.	8b-\J	.
4FF/	.	8An/L	.	.	.	8an\L	.
.	.	8B-/	.	.	.	8b-\	.
4DD/)	.	8c/	.	4A-/)	.	8cc\	.
.	.	8B-/J)	.	.	.	8b-\J)	.
=42	=42	=42	=42	=42	=42	=42	=42
8EE-/L	p	(8B-\L	p	(8G/L	p	(8b-\L	p
8BB-/	.	8g\J	.	8B-/J	.	8gg\J)	.
8E-/	.	2g\	.	2B-/	.	(2gg\	.
8BB-/J	.	.	.	.	.	.	.
8D/L	.	.	.	.	.	.	.
8BB-/	.	.	.	.	.	.	.
8D/	.	&(4f\&)	.	4A-/	.	4ff\)	.
8BB-/J	.	.	.	.	.	.	.
=43	=43	=43	=43	=43	=43	=43	=43
.	.	enq\	.	Gq\	.	(eenq\	.
.	.	fq\)	.	A-q\	.	ffq\)	.
.	.	gq\	.	B-q\	.	ggq\	.
8E-/L	.	2f\	.	2A-/	.	2ff\	.
8BB-/	.	.	.	.	.	.	.
8E-/	.	.	.	.	.	.	.
8BB-/J	.	.	.	.	.	.	.
8E-/L	.	&(4e-\&)	.	8G/L)	.	&(4ee-\&)	.
8BB-/	.	.	.	8B-/	.	.	.
8GG/	.	4B-/	.	8e-/	.	4b-\	.
8EE-/J	.	.	.	8g/J	.	.	.
=44	=44	=44	=44	=44	=44	=44	=44
8DD/L	.	(8B-\L	.	8a-/L	.	(8b-\L	.
8BB-/	.	8a-\J	.	8d/J	.	8aa-\J)	.
8D/	.	2a-\	.	2f/	.	(2aa-\	.
8BB-/J	.	.	.	.	.	.	.
8E-/L	.	.	.	.	.	.	.
8D/	.	.	.	.	.	.	.
8E-/	.	4g\	.	4e-/	.	4gg\)	.
8AAn/J	.	.	.	.	.	.	.
=45	=45	=45	=45	=45	=45	=45	=45
.	.	fq\	.	(dq\	.	(ffq\	.
.	.	gq\)	.	e-q\)	.	ggq\)	.
.	.	a-q\	.	fq\	.	aa-q\	.
8BB-\L	.	2g\	.	2e-/	.	2gg\	.
8B-\	.	.	.	.	.	.	.
8B-\	.	.	.	.	.	.	.
8B-\J	.	.	.	.	.	.	.
8An\L)	.	4f\	.	&(4d/&)	.	&(4ff\&)	.
8B-\	.	.	.	.	.	.	.
8A-\	.	8r	.	4r	.	4r	.
8B-\J	.	8c\	.	.	.	.	.
=46	=46	=46	=46	=46	=46	=46	=46
(2G\	<	(8e-\L	<	4r	.	(8b-\L	<
.	.	8B-\	<	.	.	8bb-\J)	<
.	.	8g\	.	8r	.	2bb-\	.
.	.	8e-\J	.	8ee-\	.	.	.
2F\	<	8e-\L	.	(8ee-\L	<	.	.
.	.	8d\	.	8dd\	<	.	.
.	.	8c\	.	8cc\	.	[4aa-\	.
.	.	&(8d\J&)	.	8dd\J)	.	.	.
=47	=47	=47	=47	=47	=47	=47	=47
2E-\	.	8e-/L	.	4ee-\	.	4aa-\]	.
.	.	8G/	.	.	.	.	.
.	.	8e-/	.	8r	.	2gg\	.
.	.	8c/J	.	8cc\	.	.	.
2D\)	.	8c/L	.	(8cc\L	.	.	.
.	.	8Bn/	.	8bn\	.	.	.
.	.	8An/	.	8an\	.	[4ff\	.
.	.	&(8Bn/J&)	.	8bn\J)	.	.	.
=48	=48	=48	=48	=48	=48	=48	=48
2C/	.	8c/L	.	8cc/L	.	(8ff\L]	.
.	.	8G/	.	8e-/	.	8ee-\)	.
.	.	8G/	.	8e-/	.	(8ee-\	.
.	.	8G/J	.	8e-/J	.	8dd\J)	.
2FF/	.	8F/L	.	8e-/L	.	(8dd\L	.
.	.	8F/	.	8e-/	.	8cc\)	.
.	.	8c/	.	8e-/	.	8b-\	.
.	.	8c/J	.	8e-/J	.	8an\J	.
=49	=49	=49	=49	=49	=49	=49	=49
8BB-\L	.	8B-/	.	8d/	.	(4cc\	.
8B-\	p	8d\L	p	8f/L	p	.	.
8B-\	.	8d\	.	8f/	.	[4b-\)	p
8B-\J	.	8d\J	.	8f/J	.	.	.
4B-\	.	4d\	.	4f/	.	8b-/L]	.
.	.	.	.	.	.	(16an/L	.
.	.	.	.	.	.	16b-/JJ	.
4r	.	4r	.	4r	.	16an\LL	.
.	.	.	.	.	.	16b-\	.
.	.	.	.	.	.	16ee-\)	.
.	.	.	.	.	.	16dd\JJ	.
=50	=50	=50	=50	=50	=50	=50	=50
8r	.	8r	.	8r	.	(4bn\	.
8B-\L	.	8e-\L	.	8an/L	.	.	.
8B-\	.	8e-\	.	8an/	.	[4cc\)	.
8B-\J	.	8e-\J	.	8an/J	.	.	.
4B-\	.	4e-\	.	4an/	.	8cc\L]	.
.	.	.	.	.	.	(16bn\L	.
.	.	.	.	.	.	16cc\JJ)	.
4r	.	4r	.	4r	.	(16bn\LL	.
.	.	.	.	.	.	16cc\	.
.	.	.	.	.	.	16ff\	.
.	.	.	.	.	.	16ee-\JJ)	.
=51	=51	=51	=51	=51	=51	=51	=51
4r	.	4r	.	4r	.	(16cc#\LL	<
.	.	.	.	.	.	16dd\)	<
.	.	.	.	.	.	(16cc#\	.
.	.	.	.	.	.	16dd\JJ)	.
4B-\	<	4f\	<	4a-/	<	(16cc#\LL	.
.	.	.	.	.	.	16dd\	.
.	.	.	.	.	.	16gg\	.
.	.	.	.	.	.	16ff\JJ)	.
4r	.	4r	.	4r	.	(16dd\LL	.
.	.	.	.	.	.	16ee-\)	.
.	.	.	.	.	.	(16dd\	.
.	.	.	.	.	.	16ee-\JJ)	.
4B-\	.	4e-\	.	4g/	.	(16dd\LL	.
.	.	.	.	.	.	16ee-\	.
.	.	.	.	.	.	16aa-\	.
.	.	.	.	.	.	16gg\JJ)	.
=52	=52	=52	=52	=52	=52	=52	=52
4r	.	4r	.	4r	.	(16een\LL	.
.	.	.	.	.	.	16ff\	.
.	.	.	.	.	.	16gg\	.
.	.	.	.	.	.	16ff\JJ	.
4BB-/	f	4B-\ 4a-\	f	4B-/ 4f/ 4dd/	f	16aa-\LL	f
.	.	.	.	.	.	16gg\	p
.	.	.	.	.	.	16bb-\	.
.	.	.	.	.	.	16aa-\JJ	.
2r	.	2r	.	2r	.	16gg\LL	.
.	.	.	.	.	.	16ff\	.
.	.	.	.	.	.	16ee-\	.
.	.	.	.	.	.	16dd\JJ	.
.	.	.	.	.	.	16cc/LL	.
.	.	.	.	.	.	16b-/	.
.	.	.	.	.	.	16an/	.
.	.	.	.	.	.	16a-/JJ)	.
=53	=53	=53	=53	=53	=53	=53	=53
4E-\	p	4B-/	p	4e-/	p	4g/	.
4.G\	.	4.B-/	.	4.e-/	.	4.b-\	.
8G\L	.	8B-/L	.	8e-/L	.	8b-\L	.
8F\	.	8B-/	.	8a-/	.	8dd\	.
8E-\J	.	8B-/J	.	8g/J	.	8ee-\J	.
=54	=54	=54	=54	=54	=54	=54	=54
(4D\	.	4B-/	.	(4f/	.	(8ff\L	.
.	.	.	.	.	.	8dd\J)	.
4F\	.	4d\	.	4a-/	.	2b-\	.
4BB-/	.	4f\	.	4d/	.	.	.
.	.	.	.	.	.	(b-q\	.
4D\)	.	4B-/)	.	4f/)	.	8a-/L	.
.	.	.	.	.	.	16g/L	.
.	.	.	.	.	.	16a-/JJ)	.
=55	=55	=55	=55	=55	=55	=55	=55
4E-\	.	4B-/	.	4B-/	.	4g/	.
4.G\	.	4.B-/	.	4.e-/	.	4.b-\	.
8G\L	.	8B-/L	.	8e-/L	.	8b-\L	.
8F\	.	8B-/	.	8a-/	.	8dd\	.
8E-\J	.	8B-/J	.	8g/J	.	8ee-\J	.
=56	=56	=56	=56	=56	=56	=56	=56
(4D\	.	(4B-/	.	(4f/	.	(8ff\L	.
.	.	.	.	.	.	8dd\J)	.
4F\	.	4d\	.	4a-/	.	2b-\	.
4BB-/	.	4f\	.	4d/	.	.	.
.	.	.	.	.	.	(b-q\	.
4D\)	.	4B-/)	.	4f/)	.	8a-/L	.
.	.	.	.	.	.	16g/L	.
.	.	.	.	.	.	16a-/JJ)	.
=57	=57	=57	=57	=57	=57	=57	=57
4E-\	.	4B-/	.	4B-/	.	4g/	.
4.G\	.	4.B-/	.	4.e-/	.	4.b-\	.
8G\L	.	8B-/L	.	8e-/L	.	8b-\L	.
8F\	.	8A-/	.	8f/	.	8dd\	.
8E-\J	.	8G/J	.	8g/J	.	8ee-\J	.
=58	=58	=58	=58	=58	=58	=58	=58
(8E-\L	.	(8G/L	.	(8g/	.	(8ee-\L	.
8A-\J)	.	8c/J)	.	4e-/	.	8cc\J)	.
4.A-\	.	4.c\	.	.	.	4.cc\	.
.	.	.	.	8en/	.	.	.
.	.	.	.	8f/L)	.	.	.
8A-\L	.	8c/L	.	8f/	.	8cc\L	.
8G\	.	8B-/	.	8g/	.	8een\	.
8F\J	.	8A-/J	.	8a-/J	.	8ff\J	.
=59	=59	=59	=59	=59	=59	=59	=59
(2B-\	.	(4B-/	<	(4a-/	<	(4ff\	<
.	.	4b-\	.	4g/	.	2ee-\	.
4An\	.	4cc\	.	4g-/	.	.	.
4A-\)	.	4b-\)	.	4f/)	.	4dd\)	.
=60	=60	=60	=60	=60	=60	=60	=60
8GG/	p	8b-\	p	8e-/	p	8ee-\	p
4G\	.	4B-/	.	4e-/	.	4bb-\	.
[8G\	.	[8B-/	.	[8e-/	.	[8bb-\	.
8G\L]	.	8B-/L]	.	8e-/L]	.	8bb-\L]	.
8G\	.	8B-/	.	8e-/	.	8bb-\	.
8F\	.	8B-/	.	8d/	.	8aa-\	.
8E-\J	.	8B-/J	.	8e-/J	.	8gg\J	.
=61	=61	=61	=61	=61	=61	=61	=61
8AA-/	.	8c\	.	8e-/	.	8ff\	.
4A-\	.	4c\	.	4f/	.	4ccc\	.
[8A-\	.	[8c\	.	[8f/	.	[8ccc\	.
8A-\L]	.	8c\L]	.	8f/L]	.	8ccc\L]	.
8A-\	.	8c\	.	8f/	.	8ccc\	.
8G\	.	8c\	.	8en/	.	8bb-\	.
8F\J	.	8c\J	.	8f/J	.	8aa-\J	.
=62	=62	=62	=62	=62	=62	=62	=62
8BB-/	.	8d-\	.	8en/	.	8gg\	.
4B-\	.	4en\	.	4dd-\	.	4ddd-\	.
[8B-\	.	[8en\	.	[8dd-\	.	[8ddd-\	.
8B-\L]	.	8en\L]	.	8dd-\L]	.	8ddd-\L]	.
8B-\	.	8en\	.	8dd-\	.	8ddd-\	.
8A-\	.	8f\	.	8cc\	.	8ccc\	.
8G\J	.	8f\J	.	8bn\J	.	8bbn\J	.
=63	=63	=63	=63	=63	=63	=63	=63
8A-\L	.	8f\L	.	8cc\L	.	8ccc\L	.
8A-\	.	8f\	.	8cc\	.	8ccc\	.
8A-\	.	8f\	.	8cc\	.	8ccc\	.
8G\J	.	8f\J	.	8bn\J	.	8bbn\J	.
8A-\L	.	8f\L	.	8cc\L	.	8ccc\L	.
8A-\	.	8f\	.	8cc\	.	8ccc\	.
8A-\	.	8f\	.	8cc\	.	8ccc\	.
8G\J	.	8f\J	.	8bn\J	.	8bbn\J	.
=64	=64	=64	=64	=64	=64	=64	=64
(2A-\	<	(4f\	<	(4cc\	<	4ccc\	<
.	.	4e-\	<	4ee-\	.	2ccc\	<
2G-\	<	4c\	.	4cc\	.	.	.
.	.	4B-/)	.	4b-\)	.	[4eee-\	.
=65	=65	=65	=65	=65	=65	=65	=65
2F\	.	(2An/	.	(2an/	.	4eee-\]	.
.	.	.	.	.	.	2ggg-\	.
2E-\)	.	2c\)	.	2cc\)	.	.	.
.	.	.	.	.	.	(4An/	.
=66	=66	=66	=66	=66	=66	=66	=66
4D\	.	4F/	.	4f/	.	16B-/LL)	.
.	.	.	.	.	.	(16An/	.
.	.	.	.	.	.	16c/	.
.	.	.	.	.	.	16B-/JJ	.
4r	.	4r	.	4r	.	16d/LL	.
.	.	.	.	.	.	16c/	.
.	.	.	.	.	.	16e-/	.
.	.	.	.	.	.	16d/JJ	.
2r	.	2r	.	2r	.	16f/LL	.
.	.	.	.	.	.	16en/	.
.	.	.	.	.	.	16g/	.
.	.	.	.	.	.	16f/JJ	.
.	.	.	.	.	.	16an/LL	.
.	.	.	.	.	.	16g/	.
.	.	.	.	.	.	16b-/	.
.	.	.	.	.	.	16an/JJ	.
=67	=67	=67	=67	=67	=67	=67	=67
(4A-\	.	(4a-\	.	2r	.	16cc\LL	.
.	.	.	.	.	.	16b-\	.
.	.	.	.	.	.	16dd\	.
.	.	.	.	.	.	16cc\JJ	.
4F\	.	4f\	.	.	.	16ee-\LL	.
.	.	.	.	.	.	16dd\	.
.	.	.	.	.	.	16ff\	.
.	.	.	.	.	.	16een\JJ	.
4D\	.	4d\	.	4r	.	16gg\LL	.
.	.	.	.	.	.	16ff\	.
.	.	.	.	.	.	16aa-\	.
.	.	.	.	.	.	16gg\JJ	.
4AA-/)	.	4A-/)	.	4dd\	.	16bb-\LL	.
.	.	.	.	.	.	16aan\	.
.	.	.	.	.	.	16ccc\	.
.	.	.	.	.	.	16bb-\JJ)	.
=68	=68	=68	=68	=68	=68	=68	=68
4GG/	.	4G/	.	4ee-\	.	8bb-\	.
.	.	.	.	.	.	4eee-\	.
4r	.	4r	.	4r	.	.	.
.	.	.	.	.	.	4ggg\	.
2r	.	8r	.	8r	.	.	.
.	.	8g\L	.	8ee-\L	.	8bbb-\L	.
.	.	8e-\	.	8gg\	.	8bbb-\	.
.	.	8g\J	.	8ee-\J	.	8bbb-\J	.
=69	=69	=69	=69	=69	=69	=69	=69
8B-\L	f	8d/L	f	8aa-\L	f	2B-/	f
8BB-\	.	8D/	.	8ff\	.	.	.
8BB-\	.	8F/	.	8dd\	.	.	.
8BB-\J	.	8A-/J	.	8b-\J	.	.	.
.	.	.	.	.	.	anq\	.
.	.	.	.	.	.	b-q\	.
8BB-/L	.	8d\L	.	8a-/L	.	2b-\	.
8BB-/	.	8f\	.	8f/	.	.	.
8BB-/	.	8a-\	.	8d/	.	.	.
8BB-/J	.	8A-\J	.	8dd/J	.	.	.
=70	=70	=70	=70	=70	=70	=70	=70
4E-\	.	4G/	.	4ee-\	.	4e-/	.
4r	.	4r	.	4r	.	4r	.
4B-\	pp	4B-/	pp	4b-\	pp	4b-\	pp
4G\	.	4G/	.	4g/	.	4g/	.
=71	=71	=71	=71	=71	=71	=71	=71
4E-\	.	4E-/	.	4e-/	.	4e-/	.
4En\	.	4En/	.	4en/	.	4en/	.
4F\	.	4F/	.	4f/	.	4f/	.
4G\	.	4G/	.	4g/	.	4g/	.
=72	=72	=72	=72	=72	=72	=72	=72
4A-\	.	4A-/	.	4a-/	.	4a-/	.
4r	.	4r	.	4r	.	4r	.
4C-/	.	4c-\	.	4c-/	.	4c-/	.
4r	.	4r	.	4r	.	4r	.
=73	=73	=73	=73	=73	=73	=73	=73
4BB-/	.	4B-/	.	4B-/	.	4B-/	.
4r	.	4r	.	4r	.	4r	.
4BB-/	f	4B-/	f	4B-/ 4a-/	f	4B-/ 4f/ 4dd/	f
4BB-/	.	4B-/	.	4B-/ 4a-/	.	4B-/ 4f/ 4dd/	.
=74	=74	=74	=74	=74	=74	=74	=74
4E-\	.	4e-\	.	4B-/ 4g/	.	4G/ 4e-/ 4ee-/	.
4r	.	4r	.	4r	.	4r	.
4B-\	pp	4B-/	pp	4b-\	pp	4b-\	pp
4G\	.	4G/	.	4g/	.	4g/	.
=75	=75	=75	=75	=75	=75	=75	=75
4E-\	.	4E-/	.	4e-/	.	4e-/	.
4En\	.	4En/	.	4en/	.	4en/	.
4F\	.	4F/	.	4f/	.	4f/	.
4G\	.	4G/	.	4g/	.	4g/	.
=76	=76	=76	=76	=76	=76	=76	=76
4A-\	.	4A-/	.	4a-/	.	4a-/	.
4r	.	4r	.	4r	.	4r	.
4C/	.	4c\	.	4c/	.	4c/	.
4r	.	4r	.	4r	.	4r	.
=77	=77	=77	=77	=77	=77	=77	=77
*>A1	*>A1	*>A1	*>A1	*>A1	*>A1	*>A1	*>A1
4BBn/	.	4Bn/	.	4Bn/	.	4Bn/	.
4r	.	4r	.	4r	.	4r	.
4GG/	f	4G/	f	4G/ 4f/	f	4G/ 4d/ 4bn/	f
4GG/	.	4G/	.	4G/ 4f/	.	4G/ 4d/ 4bn/	.
=78:|!|:	=78:|!|:	=78:|!|:	=78:|!|:	=78:|!|:	=78:|!|:	=78:|!|:	=78:|!|:
*>A2	*>A2	*>A2	*>A2	*>A2	*>A2	*>A2	*>A2
4C#/	.	4c#\	.	4c#/	.	4c#/	.
4r	.	4r	.	4r	.	4r	.
4D\	f	4d\	f	4d/ 4cc/	f	4d/ 4an/ 4ff#/	f
4D\	.	4d\	.	4d/ 4cc/	.	4d/ 4an/ 4ff#/	.
=79	=79	=79	=79	=79	=79	=79	=79
*>B	*>B	*>B	*>B	*>B	*>B	*>B	*>B
*	*	*	*	*	*	*^	*
8GG/L	f	8g\L	f	8d/L 8b-/	f	[2gg/	4G\ 4d\ 4b-\	f
8G/	p	8g\	p	8d/ 8b-/	p	.	.	.
8G/	.	8g\	.	8d/ 8b-/	.	.	4r	.
8G/J	.	8g\J	.	8d/J 8b-/	.	.	.	.
*	*	*	*	*	*	*v	*v	*
8G\L	.	8g\L	.	8d/L 8b-/	.	8gg\L_	p
.	.	.	.	.	.	(aanq\	.
.	.	.	.	.	.	ggq\)	.
.	.	.	.	.	.	ff#q\	.
8G\	.	8g\	.	8d/ 8b-/	.	8gg\]	.
8G\	.	8f#\	.	8e-/ 8cc/	.	8bb-\	.
8G\J	.	8f#\J	.	8e-/J 8cc/	.	8aan\J	.
=80	=80	=80	=80	=80	=80	=80	=80
8G\L	.	8f#\L	.	8e-/L 8cc/	.	(2aan\	.
8G\	.	8f#\	.	8e-/ 8cc/	.	.	.
8G\	.	8f#\	.	8e-/ 8cc/	.	.	.
8G\J	.	8f#\J	.	8e-/J 8cc/	.	.	.
8G\L	.	8g\L	.	8d/L 8b-/	.	4gg\)	.
8G\	.	8g\	.	8d/ 8b-/	.	.	.
8F\	.	8g\	.	8d/ 8bn/	.	4gg\	.
8F\J	.	8g\J	.	8d/J 8bn/	.	.	.
=81	=81	=81	=81	=81	=81	=81	=81
8E-\L	.	8g\L	.	8e-/L 8cc/	.	[2ccc\	.
8E-\	.	8g\	.	8e-/ 8cc/	.	.	.
8C\	.	8g\	.	8e-/ 8cc/	.	.	.
8C\J	.	8g\J	.	8e-/J 8cc/	.	.	.
8G/L	.	8g\L	.	8e-/L 8cc/	.	8ccc\L]	.
.	.	.	.	.	.	(dddq\	.
.	.	.	.	.	.	cccq\)	.
.	.	.	.	.	.	bbnq\	.
8G/	.	8g\	.	8e-/ 8cc/	.	8ccc\	.
8GG/	.	8f\	.	8bn/	.	8eee-\	.
8GG/J	.	8f\J	.	8bn/J	.	&(8ddd\J&)	.
=82	=82	=82	=82	=82	=82	=82	=82
8AA-\L	.	8f\L	.	8bn\L	.	(2ddd\	.
8A-\	.	8f\	.	8bn\	.	.	.
8A-\	.	8f\	.	8bn\	.	.	.
8A-\J	.	8f\J	.	8bn\J	.	.	.
8A-\L	.	8e-\L	.	8cc/L	.	4ccc\)	.
8A-\	.	8c\	.	8e-/	.	.	.
8G\	.	8c\	.	8e-/	.	4cc\	.
8G\J	.	8c\J	.	8e-/J	.	.	.
=83	=83	=83	=83	=83	=83	=83	=83
8F#\L	.	8c\L	.	8e-/L	.	(8cc\L	.
8F#\	.	8c\	.	8cc/	.	8aan\J)	.
8F#\	.	8c\	.	8cc/	.	(2aan\	.
8F#\J	.	8c\J	.	8cc/J	.	.	.
8F#\L	.	8c\L	.	8cc\L	.	.	.
8F#\	.	8c\	.	8cc\	.	.	.
8E-\	.	8c\	.	8cc\	.	4gg\)	.
8E-\J	.	8c\J	.	8cc\J	.	.	.
=84	=84	=84	=84	=84	=84	=84	=84
8D\L	.	8c\L	.	8cc/L	.	(8ff#\L	.
8d\	.	8f#\	.	8an/	.	8ccc\J)	.
8d\	.	8f#\	.	8an/	.	(2ccc\	.
8d\J	.	8f#\J	.	8an/J	.	.	.
8d\L	.	8f#\L	.	8an/L	.	.	.
8d\	.	8f#\	.	8an/	.	.	.
8e-\	.	8g\	.	8g/	.	4bb-\)	.
8e-\J	.	8g\J	.	8g/J	.	.	.
=85	=85	=85	=85	=85	=85	=85	=85
8c#\L	.	8g\L	.	8een\L	.	(8bb-\L	.
8c#\	.	8g\	.	8een\	.	8aan\J)	.
8e-\	.	8b-\	.	8cc#\	.	(2gg\	.
8e-\J	.	8b-\J	.	8cc#\J	.	.	.
8d\L	.	8b-\L	.	8dd\L	.	.	.
8d\	.	8b-\	.	8dd\	.	.	.
8D\	.	8an\	.	8cc\	.	4ff#\)	.
8D\J	.	8an\J	.	8cc\J	.	.	.
=86	=86	=86	=86	=86	=86	=86	=86
8G\L	.	8d\L	.	8b-\L	.	4.gg\	.
8B-\	.	8d\	.	8dd\	.	.	.
8B-\	.	8d\	.	(8dd\	.	.	.
8F#\J	.	8d\J	.	8cc\J)	.	8aan\	.
8G\L	.	8d/L	.	8b-\L	.	4bb-\	.
8d\	.	8d/	.	8dd\	.	.	.
8B-\	.	8B-/	.	8b-\	.	8r	.
8G\J	.	8G/J	.	8g\J	.	8gg\	.
=87	=87	=87	=87	=87	=87	=87	=87
8D\L	<	8D/L	<	8d/L	<	(8ff#\L	<
8c\	.	8f#/	.	8an/	.	8eee-\J)	.
8c\	.	8f#/	.	8an/	.	(2eee-\	.
8c\J	.	8f#/J	.	8an/J	.	.	.
8c\L	.	8f#\L	.	8an/L	.	.	.
8c\	.	8f#\	.	8an/	.	.	.
8B-\	.	8g\	.	8b-/	.	4ddd\)	.
8B-\J	.	8g\J	.	8b-/J	.	.	.
=88	=88	=88	=88	=88	=88	=88	=88
8r	.	8r	.	8r	.	(4ccc\	.
8An\L	.	8d\L	.	8cc\L	.	.	.
8An\	.	8d\	.	8cc\	.	2fff#\	.
8An\J	.	8d\J	.	8cc\J	.	.	.
8An\L	.	8d\L	.	8cc\L	.	.	.
8An\	.	8d\	.	8cc\	.	.	.
8G\	.	8d\	.	8b-\	.	4ggg\)	.
8G\J	.	8d\J	.	8b-\J	.	.	.
=89	=89	=89	=89	=89	=89	=89	=89
8r	.	8r	.	8r	.	2.An/	.
8C/L	.	8G/L	.	8ee-\L	.	.	.
8C/	.	8G/	.	8ee-\	.	.	.
8C/J	.	8G/J	.	8ee-\J	.	.	.
8E-\L	.	8G/L	.	8cc\L	.	.	.
8E-\	.	8G/	.	8cc\	.	.	.
8C\	.	8G/	.	8an\	.	4ee-\	.
8C\J	.	8G/J	.	8an\J	.	.	.
=90	=90	=90	=90	=90	=90	=90	=90
8DD/L	.	8G/L	.	8b-/L	.	(4ee-\	.
8D/	.	8G/	.	8B-/	.	.	.
8D/	.	8G/	.	8B-/	.	2dd\	.
8D/J	.	8G/J	.	8B-/J	.	.	.
8DD/L	.	8An/L	.	8c/L	.	.	.
8D/	.	8An/	.	8c/	.	.	.
8D/	.	8An/	.	8c/	.	4f#/)	.
8D/J	.	8An/J	.	8c/J	.	.	.
=91	=91	=91	=91	=91	=91	=91	=91
[2GG/	.	8G/L	.	4B-/	.	4g/	.
.	.	8D/ 8d/	.	.	.	.	.
.	.	8D/ 8d/	.	4r	.	4r	.
.	.	8D/J 8d/	.	.	.	.	.
8GG/L]	.	8D/L 8d/	.	2r	.	2r	.
(8GG/	.	8D/ 8d/	.	.	.	.	.
8BB-/	.	8D/ 8d/	.	.	.	.	.
8AAn/J)	.	8D/J 8d/	.	.	.	.	.
=92	=92	=92	=92	=92	=92	=92	=92
(2AAn/	.	8D/L 8d/	.	8r	.	2.ddd\	.
.	.	8D/ 8d/	.	(8G/L	.	.	.
.	.	8D/ 8d/	.	8B-/	.	.	.
.	.	8D/J 8d/	.	8d/J	.	.	.
4GG/)	.	8D/L 8d/	.	8g/L	.	.	.
.	.	8D/ 8d/	.	8b-/	.	.	.
4r	.	8D/ 8d/	.	8dd/	.	(8.eee-\L	.
.	.	8D/J 8d/	.	8g/J)	.	.	.
.	.	.	.	.	.	16ddd\Jk)	.
=93	=93	=93	=93	=93	=93	=93	=93
[2AAn/	.	8D/L 8d/	.	4f#/	.	4ddd\	.
.	.	8D/ 8d/	.	.	.	.	.
.	.	8D/ 8d/	.	4r	.	4r	.
.	.	8D/J 8d/	.	.	.	.	.
8AA/L]	.	8D/L 8d/	.	2r	.	2r	.
(8AAn/	.	8D/ 8d/	.	.	.	.	.
8C/	.	8D/ 8d/	.	.	.	.	.
8BB-/J)	.	8D/J 8d/	.	.	.	.	.
=94	=94	=94	=94	=94	=94	=94	=94
(2BB-/	.	8D/L 8d/	.	8r	.	2.ddd\	.
.	.	8D/ 8d/	.	(8f#/L	.	.	.
.	.	8D/ 8d/	.	8an/	.	.	.
.	.	8D/J 8d/	.	8g/J	.	.	.
4AAn/)	.	8D/L 8d/	.	8f#/L	.	.	.
.	.	8D/ 8d/	.	8an/	.	.	.
4r	.	8D/ 8d/	.	8dd/	.	(8.eee-\L	.
.	.	8D/J 8d/	.	8f#/J)	.	.	.
.	.	.	.	.	.	16ddd\Jk)	.
=95	=95	=95	=95	=95	=95	=95	=95
4BB-/	.	8D/L 8d/	.	4g/	.	4ddd\	.
.	.	(8G/	.	.	.	.	.
4r	.	8B-/	.	4r	.	4r	.
.	.	8An/J	.	.	.	.	.
8r	.	4An/	.	2r	.	2r	.
(8BB-/L	.	.	.	.	.	.	.
8D/	.	&(4G/&)	.	.	.	.	.
8C/J)	.	.	.	.	.	.	.
=96	=96	=96	=96	=96	=96	=96	=96
(4C/	.	8r	.	1r	.	1r	.
.	.	8G\L	.	.	.	.	.
4.BBn/	.	8f\	.	.	.	.	.
.	.	8e-\J	.	.	.	.	.
.	.	4e-\	.	.	.	.	.
8BBn\L	.	.	.	.	.	.	.
8A-\	.	&([4d\&)	.	.	.	.	.
&(8G\J&)	.	.	.	.	.	.	.
=97	=97	=97	=97	=97	=97	=97	=97
4G\	<	8d\L]	.	2r	.	8r	.
.	.	8d\	<	.	.	(8bn\L	<
4F\)	.	8Bn\	.	.	.	8dd\	.
.	.	8c\J	.	.	.	8cc\J)	.
2r	.	8d\L	.	8r	.	8bn\L	.
.	.	8f\	.	(8bn\L	<	(8dd\	.
.	.	8d\	.	8dd\	.	8ff\	.
.	.	&(8e-\J&)	.	8cc\J)	.	8ee-\J)	.
=98	=98	=98	=98	=98	=98	=98	=98
[2GG/	.	8f\L	.	8bn\L	.	8dd\L	.
.	.	8a-\	.	(8ff\	.	(8bbn\	.
.	.	8f\	.	8dd\	.	8ddd\	.
.	.	8g\J	.	8ee-\J	.	8ccc\J)	.
8GG/L]	.	8a-\)	.	8ff\L	.	8bbn\	.
(8AA-/	.	4d\	.	8f\	.	4bbn\	.
8GG/	.	.	.	8g\	.	.	.
8FF/J)	.	8d\	.	8a-\J	.	8bbn\	.
=99	=99	=99	=99	=99	=99	=99	=99
4EE-/	.	8e-/L	.	4g/	.	[2ccc\	.
.	.	8G/ 8e-/	.	.	.	.	.
4r	.	8G/ 8e-/	.	4r	.	.	.
.	.	8G/J 8e-/	.	.	.	.	.
2r	.	8G/L 8e-/	.	2r	.	8ccc\L]	.
.	.	.	.	.	.	(dddq\	.
.	.	.	.	.	.	cccq\)	.
.	.	.	.	.	.	bbnq\	.
.	.	8G/ 8e-/	.	.	.	8ccc\	.
.	.	8G/ 8e-/	.	.	.	8eee-\	.
.	.	8G/J 8e-/	.	.	.	&(8ddd\J&)	.
=100	=100	=100	=100	=100	=100	=100	=100
2.GG/	.	8G/L 8e-/	.	8r	.	(2ddd\	.
.	.	8G/ 8e-/	.	8c/L	.	.	.
.	.	8G/ 8e-/	.	8e-/	.	.	.
.	.	8G/J 8e-/	.	8g/J	.	.	.
.	.	8G/L 8e-/	.	8cc\L	.	4ccc\)	.
.	.	8G/ 8e-/	.	8ee-\	.	.	.
8.AA-/L	.	8G/ 8e-/	.	8gg\	.	4r	.
.	.	8G/J 8e-/	.	8cc\J)	.	.	.
16GG/Jk	.	.	.	.	.	.	.
=101	=101	=101	=101	=101	=101	=101	=101
4GG/	.	8G\L 8f\	.	4bn\	.	[2ddd\	.
.	.	8G\ 8f\	.	.	.	.	.
4r	.	8G\ 8f\	.	4r	.	.	.
.	.	8G\J 8f\	.	.	.	.	.
2r	.	8G\L 8f\	.	2r	.	8ddd\L]	.
.	.	.	.	.	.	(eee-q\	.
.	.	.	.	.	.	dddq\)	.
.	.	.	.	.	.	cccq\	.
.	.	8G\ 8f\	.	.	.	8ddd\	.
.	.	8G\ 8f\	.	.	.	8fff\	.
.	.	8G\J 8f\	.	.	.	&(8eee-\J&)	.
=102	=102	=102	=102	=102	=102	=102	=102
2.GG/	.	8G\L 8f\	.	8r	.	(2eee-\	.
.	.	8G\ 8f\	.	(8bn\L	.	.	.
.	.	8G\ 8f\	.	8dd\	.	.	.
.	.	8G\J 8f\	.	8cc\J	.	.	.
.	.	8G\L 8f\	.	8bn\L	.	2ddd\)	.
.	.	8G\ 8f\	.	8ff\	.	.	.
8.AA-/L	.	8G\ 8f\	.	8aa-\	.	.	.
.	.	8G\J 8f\	.	8bn\J)	.	.	.
16GG/Jk	.	.	.	.	.	.	.
=103	=103	=103	=103	=103	=103	=103	=103
4GG/	.	4G/ 4en/	.	4b-\	.	8ddd-\L	.
.	.	.	.	.	.	(8een\	.
4r	.	4r	.	4r	.	8gg\	.
.	.	.	.	.	.	8ff\J)	.
2r	.	2r	.	8r	.	(4ff\	.
.	.	.	.	(8g/L	.	.	.
.	.	.	.	8b-/	.	[4een\)	.
.	.	.	.	8a-/J)	.	.	.
=104	=104	=104	=104	=104	=104	=104	=104
1r	.	1r	.	(4a-/	.	8ee\L]	.
.	.	.	.	.	.	(8een\	.
.	.	.	.	4.g/	.	8ddd-\	.
.	.	.	.	.	.	8ccc\J)	.
.	.	.	.	.	.	(4ccc\	.
.	.	.	.	8g\L	.	.	.
.	.	.	.	8dd-\	.	[4bb-\)	.
.	.	.	.	8cc\J	.	.	.
=105	=105	=105	=105	=105	=105	=105	=105
2r	.	8r	.	4cc\	.	8bb-\L]	.
.	.	(8En/L	<	.	.	(8ggg\	.
.	.	8G/	.	4b-\	.	8eeen\	.
.	.	8F/J	.	.	.	8fff\J	.
8r	.	8En/L	.	8r	.	8ggg\L)	.
(8En\L	<	8G/	.	8bb-\L	<	(8ddd-\	.
8G\	.	8B-/	.	8gg\	.	8bb-\	.
8F\J)	.	8A-/J	.	8aa-\J	.	8ccc\J)	.
=106	=106	=106	=106	=106	=106	=106	=106
8En\L	.	8G\L	.	8bb-\L	.	8ddd-\L	.
(8G\	.	8en\	.	8dd-\	.	(8bb-\	.
8B-\	.	8g\	.	8b-\	.	8gg\	.
8A-\J	.	8f\J	.	8cc\J	.	8aa-\J	.
8G\L)	.	&(8en/L&)	.	8dd-/L	.	8bb-\L)	.
8C\	.	8En/	.	8b-/	.	(8dd-\	.
8C\	.	8En/	.	8a-/	.	8cc\	.
8C\J	.	8En/J	.	8g/J	.	8b-\J)	.
=107	=107	=107	=107	=107	=107	=107	=107
8D-\L	p	8F/L	p	8f/L	p	4a-/	p
8D-\	.	8A-/	.	8f/	.	.	.
8D-\	.	8A-/	.	8f/	.	[4aa-\	.
8D-\J	.	8A-/J	.	8f/J	.	.	.
8D-\L	.	8A-/L	.	8f/L	.	(8aa-\L]	.
8D-\	.	8A-/	.	8f/	.	8gg\)	.
8D-\	.	8A-/	.	8f/	.	(8gg\	.
8D-\J	.	8A-/J	.	8f/J	.	8ff\J)	.
=108	=108	=108	=108	=108	=108	=108	=108
8D-\L	<	8A-/L	<	8f/L	<	(8ff\L	<
8D-\	<	8A-/	<	8f/	<	8ee-\)	<
8D-\	.	8A-/	.	8f/	.	(8ee-\	.
8D-\J	.	8A-/J	.	8f/J	.	8dd-\J)	.
8D-\L	.	8A-/L	.	8f/L	.	(8dd-\L	.
8D-\	.	8A-/	.	8f/	.	8cc\)	.
8D-\	.	8F/	.	8a-/	.	(8cc\	.
8D-\J	.	8A-/J	.	8f/J)	.	8bn\J)	.
=109	=109	=109	=109	=109	=109	=109	=109
4C/	ff	4C/ 4c/	ff	4G/ 4en/ 4cc/	ff	4cc\	.
4FF/	.	4C/ 4c/	.	4A-/ 4f/ 4cc/	.	4r	.
4C/	.	4C/ 4c/	.	4G/ 4en/ 4cc/	.	4g\ 4een\ 4ccc\	ff
4r	.	4r	.	4r	.	4r	.
=110	=110	=110	=110	=110	=110	=110	=110
4FF/	.	4C/ 4c/	.	4A-/ 4f/ 4cc/	.	2r	.
4C/	.	4C/ 4c/	.	4G/ 4en/ 4cc/	.	.	.
4FF/	.	4C/ 4c/	.	4A-/ 4f/ 4cc/	.	4r	.
4r	.	4r	.	4r	.	4a-\ 4ff\ 4ccc\	.
=111	=111	=111	=111	=111	=111	=111	=111
4CC/ 4C/	.	4C/ 4c/	.	4G/ 4en/ 4cc/	.	4r	.
4r	.	4r	.	4r	.	4g\ 4een\ 4ccc\	.
4FF/	.	4C/ 4c/	.	4A-/ 4f/ 4cc/	.	4r	.
4r	.	4r	.	4r	.	4a-\ 4ff\ 4ccc\	.
=112	=112	=112	=112	=112	=112	=112	=112
4CC/ 4C/	.	4C/ 4c/	.	4G/ 4en/ 4cc/	.	4r	.
*clefC4	*clefG2	*	*	*	*	*	*
2c\	.	4r	.	4r	.	4g\ 4een\ 4ccc\	.
.	.	2r	.	2r	.	2r	.
4c\	.	.	.	.	.	.	.
=113	=113	=113	=113	=113	=113	=113	=113
(8c\L	p	4F/	p	8An/L	p	1r	.
8an\J	.	.	.	8c/	.	.	.
2an\	.	4r	.	8f/	.	.	.
.	.	.	.	8c/J	.	.	.
.	.	4C/	.	8en/L	.	.	.
.	.	.	.	8c/	.	.	.
&(4g\&)	.	4r	.	8B-/	.	.	.
.	.	.	.	8c/J	.	.	.
=114	=114	=114	=114	=114	=114	=114	=114
(f#q\	.	.	.	.	.	.	.
gq\)	.	.	.	.	.	.	.
anq\)	.	.	.	.	.	.	.
2g\	.	4F/	.	8B-/L	.	8r	.
.	.	.	.	8en/	.	8ccc\L	p
.	.	4r	.	8c/	.	8ccc\	.
.	.	.	.	8B-/J	.	8ccc\J	.
4f\	.	2r	.	8An/L	.	(8bbn\L	.
.	.	.	.	8c/	.	8ccc\)	.
4c\	.	.	.	8f/	.	8aan\	.
.	.	.	.	8an/J	.	8ff\J	.
=115	=115	=115	=115	=115	=115	=115	=115
(8c\L	.	4En/	.	8g/L	.	4cc\	.
8b-\J	.	.	.	8c/	.	.	.
2b-\	.	4r	.	8g/	.	4r	.
.	.	.	.	8c/J	.	.	.
.	.	4F/	.	8f/L	.	2r	.
.	.	.	.	8c/	.	.	.
&(4an\&)	.	4r	.	8f/	.	.	.
.	.	.	.	8c/J	.	.	.
=116	=116	=116	=116	=116	=116	=116	=116
2an\	.	4C/	.	8f/L	.	8r	.
.	.	.	.	8c/	.	8ccc\L	.
.	.	4r	.	8f/	.	8ccc\	.
.	.	.	.	8c/J	.	8ccc\J	.
4g\)	.	4r	.	8en/L	.	(8bbn\L	.
.	.	.	.	8c/	.	8ccc\	.
4c\	.	4B-/	.	8g/	.	8ddd\	.
.	.	.	.	8en/J	.	8ccc\J)	.
=117	=117	=117	=117	=117	=117	=117	=117
(8c\L	.	4An/	.	8f/L	.	(2ccc\	.
8cc\J)	.	.	.	8c/	.	.	.
2cc\	.	4r	.	8f/	.	.	.
.	.	.	.	8c/J	.	.	.
.	.	4G/	.	8B-/L	.	4ddd\	.
.	.	.	.	8c/	.	.	.
[4b-\	.	4r	.	8c/	.	4eeen\	.
.	.	.	.	8c/J	.	.	.
=118	=118	=118	=118	=118	=118	=118	=118
4b-\]	.	4F/	.	8c/L	.	4fff\	.
.	.	.	.	8An/	.	.	.
2an\	.	4r	.	8c/	.	4aan\	.
.	.	.	.	8An/J	.	.	.
.	.	4En/	.	8g/L	.	4bbn\	.
.	.	.	.	8An/	.	.	.
[4g\	.	4r	.	8g/	.	4ccc#\)	.
.	.	.	.	8An/J	.	.	.
=119	=119	=119	=119	=119	=119	=119	=119
(8g\L]	.	4D/	.	8f/L	.	4ddd\	.
8f\	.	.	.	8An/	.	.	.
8en\	.	4r	.	8f/	.	(4dd\	.
8d\J	.	.	.	8An/J	.	.	.
8d\L	.	4G/	.	8f/L	.	4ff\	.
8c\	.	.	.	8G/	.	.	.
8c\	.	4r	.	8f/	.	4bn\)	.
8Bn\J	.	.	.	8G/J	.	.	.
=120	=120	=120	=120	=120	=120	=120	=120
4c\	.	4C/	.	(4en/	.	(8dd\L	<
.	.	.	.	.	.	8cc\	.
*clefF4	*clefF4	*	*	*	*	*	*
4BB-/	<	2C/) 2c/	<	2c/	<	8bn\	.
.	.	.	.	.	.	8cc\J	.
4GG/	.	.	.	.	.	8bn\L	.
.	.	.	.	.	.	8cc\	.
4EEn/)	.	4C/ 4c/	.	4B-/)	.	8dd-\	.
.	.	.	.	.	.	8cc\J)	.
=121	=121	=121	=121	=121	=121	=121	=121
*	*	*^	*	*	*	*	*
(2FF/	p	(2c/	[1C	p	(8A-/L	p	(8a-\L	p
.	.	.	.	.	8c/	.	8aa-\J)	.
.	.	.	.	.	8a-/	.	(2aa-\	.
.	.	.	.	.	8f/J	.	.	.
2CC/)	.	2B-/	.	.	8en/L	.	.	.
.	.	.	.	.	8g/	.	.	.
.	.	.	.	.	8cc/	.	4gg\)	.
.	.	.	.	.	8en/J)	.	.	.
*	*	*v	*v	*	*	*	*	*
=122	=122	=122	=122	=122	=122	=122	=122
8FF/L	.	8C/L] 8A-/	.	8f/L	.	4ff\	.
(8C/	.	8c/	.	(8cc/	.	.	.
8BBn/	.	8Bn/	.	8bn/	.	4r	.
8C/J	.	8c/J	.	8cc/J	.	.	.
8D-/L	.	8d-/L	.	8dd-/L	.	4r	.
8C/	.	8c/	.	8cc/	.	.	.
8AA-/	.	8A-/	.	8a-/	.	4cc\	.
8FF/J)	.	&(8F/J&)	.	8f/J)	.	.	.
=123	=123	=123	=123	=123	=123	=123	=123
(2EEn/	.	[1C [1c	.	(8c/L	.	(8cc\L	.
.	.	.	.	8g/	.	8bb-\J)	.
.	.	.	.	8cc/	.	(2bb-\	.
.	.	.	.	8b-/J	.	.	.
2FF/)	.	.	.	8a-/L	.	.	.
.	.	.	.	8cc/	.	.	.
.	.	.	.	8a-/	.	4aa-\)	.
.	.	.	.	8f/J)	.	.	.
=124	=124	=124	=124	=124	=124	=124	=124
8CC/L	.	8C/L] 8c/]	.	8en/L	.	4gg\	.
(8c/	.	8c/	.	(8cc/	.	.	.
8d-/	.	8d-/	.	8dd-/	.	4r	.
8B-/J	.	8B-/J	.	8b-/J	.	.	.
8G\L	.	8G/L	.	8g/L	.	4r	.
8En\	.	8En/	.	8en/	.	.	.
8C\	.	8c/	.	8c/	.	4cc\	.
8BB-\J)	.	8B-/J)	.	8B-/J)	.	.	.
=125	=125	=125	=125	=125	=125	=125	=125
2AA-/	<	4A-/	.	4A-/	.	(8cc\L	<
.	.	.	.	.	.	8ccc\J)	.
.	.	4r	.	(8f/L	<	2ccc\	.
.	.	.	.	8cc/J)	.	.	.
2En\	.	(8G\L	<	[2cc\	.	.	.
.	.	8g\J)	.	.	.	.	.
.	.	[4g\	.	.	.	[4bb-\	.
=126	=126	=126	=126	=126	=126	=126	=126
2F\	.	(4g\]	.	4cc\]	.	4bb-\]	.
.	.	4f\	.	(8c/L	.	2aa-\	.
.	.	.	.	8a-/J)	.	.	.
2C/	.	8E-/L	.	[2a-/	.	.	.
.	.	&(8e-/J&)	.	.	.	.	.
.	.	[4e-\	.	.	.	[4gg-\	.
=127	=127	=127	=127	=127	=127	=127	=127
2D-\	.	4e-\]	.	4a-/]	.	4gg-\]	.
.	.	4d-\	.	(8A-/L	.	2ff\	.
.	.	.	.	8f/J)	.	.	.
2AAn/	.	8C/L	.	[2f/	.	.	.
.	.	&(8c/J&)	.	.	.	.	.
.	.	[4c\	.	.	.	[4ee-\	.
=128	=128	=128	=128	=128	=128	=128	=128
2BB-/	.	4c\]	.	4f/]	.	4ee-\]	.
.	.	4B-/	.	(2f/	.	2dd-\	.
2AA-/	.	4F/	.	.	.	.	.
.	.	4F#/)	.	4f#/)	.	4cc\	.
=129	=129	=129	=129	=129	=129	=129	=129
4GG/	pp	16G/LL	pp	16g/LL	pp	4bn\	pp
.	.	16Bn/	.	16d/	.	.	.
.	.	16Bn/	.	16d/	.	.	.
.	.	16Bn/JJ	.	16d/JJ	.	.	.
4BBn/	.	16Bn/LL	.	16d/LL	.	4r	.
.	.	16Bn/	.	16d/	.	.	.
.	.	16Bn/	.	16d/	.	.	.
.	.	16Bn/JJ	.	16d/JJ	.	.	.
4D\	.	16Bn/LL	.	16d/LL	.	4r	.
.	.	16Bn/	.	16d/	.	.	.
.	.	16Bn/	.	16d/	.	.	.
.	.	16Bn/JJ	.	16d/JJ	.	.	.
4G\	.	16Bn/LL	.	16d/LL	.	(8g\L	.
.	.	16Bn/	.	16d/	.	.	.
.	.	16Bn/	.	16d/	.	8gg\J)	.
.	.	16Bn/JJ	.	16d/JJ	.	.	.
=130	=130	=130	=130	=130	=130	=130	=130
4GG/	.	2Bn/	.	2d/	.	(8bn\L	.
.	.	.	.	.	.	8gg\)	.
4r	.	.	.	.	.	(8dd\	.
.	.	.	.	.	.	8gg\J)	.
2r	.	2Bn/	.	2d/	.	(8ff#\L	.
.	.	.	.	.	.	8gg\)	.
.	.	.	.	.	.	(8ff\	.
.	.	.	.	.	.	8gg\J)	.
=131	=131	=131	=131	=131	=131	=131	=131
4GG/	.	2c\	.	2e-/	.	(8ee-\L	.
.	.	.	.	.	.	8gg\J)	.
4C/	.	.	.	.	.	4r	.
4E-\	.	2c\	.	2e-/	.	4r	.
4G\	.	.	.	.	.	(8g\L	.
.	.	.	.	.	.	8gg\J)	.
=132	=132	=132	=132	=132	=132	=132	=132
4GG/	.	2c\	.	2e-/	.	(8cc\L	.
.	.	.	.	.	.	8gg\)	.
4r	.	.	.	.	.	(8ee-\	.
.	.	.	.	.	.	8gg\J)	.
2r	.	2c\	.	2e-/	.	(8ff#\L	.
.	.	.	.	.	.	8gg\)	.
.	.	.	.	.	.	(8ee-\	.
.	.	.	.	.	.	8gg\J)	.
=133	=133	=133	=133	=133	=133	=133	=133
8GG/L	.	2Bn\ 2d\	.	2G/ 2f/	.	(8dd\L	.
8r	.	.	.	.	.	8gg\J)	.
8BBn/J	.	.	.	.	.	4r	.
8r	.	.	.	.	.	.	.
8D\L	.	2Bn\ 2d\	.	2G/ 2f/	.	4r	.
8r	.	.	.	.	.	.	.
8G\J	.	.	.	.	.	(8g\L	.
8r	.	.	.	.	.	8gg\J)	.
=134	=134	=134	=134	=134	=134	=134	=134
8A-\L	<	2Bn\ 2d\	<	2G/ 2f/	<	(8a-\L	<
8r	.	.	.	.	.	8gg\)	<
8Bn\J	.	.	.	.	.	(8bn\	.
8r	.	.	.	.	.	8gg\J)	.
8d\L	.	2Bn\ 2d\	<	2G/ 2f/	.	(8dd\L	.
8r	.	.	.	.	.	8gg\)	.
8e-\J	.	.	.	.	.	(8ee-\	.
8r	.	.	.	.	.	8gg\J)	.
=135	=135	=135	=135	=135	=135	=135	=135
8f\L	.	2Bn\ 2d\	.	2G/ 2f/	.	(8ff\L	.
8r	.	.	.	.	.	8gg\)	.
8d\J	.	.	.	.	.	(8dd\	.
8r	.	.	.	.	.	8gg\J)	.
8Bn\L	.	2Bn\ 2d\	.	2G/ 2f/	.	(8bn\L	.
8r	.	.	.	.	.	8gg\)	.
8A-\J	.	.	.	.	.	(8a-\	.
8r	.	.	.	.	.	8gg\J)	.
=136	=136	=136	=136	=136	=136	=136	=136
8G\L	.	2G\ 2f\	.	16Bn/LL	.	(8g\L	.
.	.	.	.	16bn/	.	.	.
8r	.	.	.	16bn/	.	8gg\)	.
.	.	.	.	16bn/JJ	.	.	.
8F\J	.	.	.	4bn\	.	(8f\	.
8r	.	.	.	.	.	8ff\J)	.
8E-\L	.	2G\ 2f\	.	4bn\	.	(8e-/L	.
8r	.	.	.	.	.	8ee-/)	.
8D\J	.	.	.	4bn\	.	(8d/	.
8r	.	.	.	.	.	8dd/J)	.
=137	=137	=137	=137	=137	=137	=137	=137
8CC/L	f	8G/ 8e-/	f	8cc\	f	2c/	f
8C/	p	4E-/	p	4G/	p	.	.
8C/	.	.	.	.	.	.	.
8C/J	.	4E-/	.	4G/	.	.	.
.	.	.	.	.	.	dq\	.
.	.	.	.	.	.	cq\	.
.	.	.	.	.	.	Bnq\	.
8C/L	.	.	.	.	.	8c/L	p
8C/	.	4E-/	.	4G/	.	(8c/	.
8C/	.	.	.	.	.	8f/	.
8C/J	.	8F/	.	8Bn/	.	8d/J)	.
=138	=138	=138	=138	=138	=138	=138	=138
8C/L	.	8F\L	.	8Bn/	.	(2d/	.
8C/	.	(8a-\	.	4bn\	.	.	.
8C/	.	8g\	.	.	.	.	.
8C/J	.	8f\J	.	(8bn\	.	.	.
8C/L	.	8e-\L	.	8cc\L	.	4c/)	.
8C/	.	8d\	.	8dd\	.	.	.
8C/	.	8c\	.	8ee-\	.	4c/	.
8C/J	.	8B-\J)	.	8een\J)	.	.	.
=139	=139	=139	=139	=139	=139	=139	=139
8CC/L	.	8A-/	.	8ff\	.	[2f/	.
8C/	.	4A-/	.	4c/	.	.	.
8C/	.	.	.	.	.	.	.
8C/J	.	4A-/	.	4c/	.	.	.
8C/L	.	.	.	.	.	8f/L]	.
.	.	.	.	.	.	(gq\	.
.	.	.	.	.	.	fq\)	.
.	.	.	.	.	.	enq\	.
8C/	.	4A-/	.	4c/	.	8f/	.
8C/	.	.	.	.	.	8a-/	.
8C/J	.	8B-/	.	8en/	.	&(8g/J&)	.
=140	=140	=140	=140	=140	=140	=140	=140
8C/L	.	8B-/L	.	8en/	.	(2g/	.
8C/	.	(8d-/	.	4een\	.	.	.
8C/	.	8c/	.	.	.	.	.
8C/J	.	8B-/J	.	(8een\	.	.	.
8C/L	.	8A-/L	.	8ff\L	.	4f/)	.
8C/	.	8G/	.	8ff\	.	.	.
8C/	.	8F/	.	8gg\	.	4f/	.
8C/J	.	8E-/J)	.	8aa-\J	.	.	.
=141	=141	=141	=141	=141	=141	=141	=141
8CC/L	.	(8D/L	.	8aa-\L	.	(8f/L	.
8C/	.	8A-/J	.	8f\J	.	8dd/J)	.
8C/	.	2A-/	.	2f/	.	(2dd\	.
8C/J	.	.	.	.	.	.	.
8C/L	.	.	.	.	.	.	.
8C/	.	.	.	.	.	.	.
8C/	.	&(4G/&)	.	4e-/	.	4cc\)	.
8C/J	.	.	.	.	.	.	.
=142	=142	=142	=142	=142	=142	=142	=142
8CC/L	.	8F/L	.	8d/L	.	(8bn\L	.
8C/	.	8Bn/J	.	8a-/J	.	8ff\J)	.
8C/	.	2Bn/	.	2a-/	.	(2ff\	.
8C/J	.	.	.	.	.	.	.
8C/L	.	.	.	.	.	.	.
8C/	.	.	.	.	.	.	.
8C/	.	&(4c\&)	.	4g/	.	4ee-\)	.
8C/J	.	.	.	.	.	.	.
=143	=143	=143	=143	=143	=143	=143	=143
8F\L	.	8f\L	.	8a-/L	.	(8ee-\L	.
8F\	.	8f\	.	8a-/	.	8dd\J)	.
8A-\	.	8e-\	.	8f#/	.	(2cc\	.
8A-\J	.	8e-\J	.	8f#/J	.	.	.
8F#\L	.	8e-\L	.	8an/L	.	.	.
8F#\	.	8e-\	.	8an/	.	.	.
8G\	.	8d\	.	8f/	.	4bn\)	.
8G\J	.	8d\J	.	8f/J	.	.	.
=144	=144	=144	=144	=144	=144	=144	=144
8E-/L	.	8G/L	.	8g/L	.	(4.cc\	.
8E-/	.	8G/	.	8g/	.	.	.
(8E-/	.	8G/	.	8g/	.	.	.
8BBn/J)	.	8f/J	.	8g/J	.	8dd\	.
8C\L	.	8e-/L	.	8g/L	.	4ee-\)	.
8G\	.	8G/	.	8g/	.	.	.
8E-\	.	8E-/	.	8e-/	.	8r	.
8C\J	.	8C/J	.	8c/J	.	8cc\	.
=145	=145	=145	=145	=145	=145	=145	=145
8GG/L	.	8G/L	.	8G/L	.	(8bn\L	.
8F/	.	8d/	.	8bn/	.	8aa-\J)	.
8F/	.	8d/	.	8bn/	.	(2aa-\	.
8F/J	.	8d/J	.	8bn/J	.	.	.
8F\L	.	8d\L	.	8bn\L	.	.	.
8F\	.	8d\	.	8bn\	.	.	.
8E-\	.	8e-\	.	8cc\	.	4gg\)	.
8E-\J	.	8e-\J	.	8cc\J	.	.	.
=146	=146	=146	=146	=146	=146	=146	=146
8r	.	8r	.	8r	.	(8ff\L	.
8BBn/L	.	8G/L	.	8dd\L	.	8fff\J)	.
8BBn/	.	8G/	.	8dd\	.	(2fff\	.
8BBn/J	.	8G/J	.	8dd\J	.	.	.
8BBn/L	.	8G/L	.	8dd\L	.	.	.
8BBn/	.	8G/	.	8dd\	.	.	.
8C/	.	8G/	.	8ee-\	.	4eee-\)	.
8C/J	.	8G/J	.	8ee-\J	.	.	.
=147	=147	=147	=147	=147	=147	=147	=147
8FF/L	<	8F/	<	4ee-\	<	(4eee-\	<
8F/	<	8c\L 8a-\	<	.	.	.	.
8F/	.	8c\ 8a-\	.	[4dd\	.	[4ddd\)	<
8F/J	.	8c\J 8a-\	.	.	.	.	.
8A-\L	.	8c\L 8f\	.	8dd\L]	.	8ddd\L]	.
8A-\	.	8c\ 8f\	.	8dd\	.	(8ddd\	.
8F\	.	8c\ 8a-\	.	8ff\	.	8fff\	.
8F\J	.	8c\J 8a-\	.	8dd\J	.	8ddd\J)	.
=148	=148	=148	=148	=148	=148	=148	=148
8F#\L	.	8c\L 8an\	.	4dd\	.	(4ddd\	.
8F#\	.	8c\ 8an\	.	.	.	.	.
8A-\	.	8f#\	.	2e-/ 2cc/	.	2ccc\	.
8A-\J	.	8f#\J	.	.	.	.	.
8G/L	.	8g\L	.	.	.	.	.
8G/	.	8g\	.	.	.	.	.
8GG/	.	8G\	.	4d/) 4bn/	.	4bbn\)	.
8GG/J	.	8G\J	.	.	.	.	.
=149	=149	=149	=149	=149	=149	=149	=149
4C/	f	4c\	f	4G/ 4e-/ 4cc/	.	4ccc\	.
4r	.	4r	.	4r	.	4r	.
4GG/	.	4G\ 4g\	.	4G/ 4d/ 4bn/	.	2r	.
4r	.	4r	.	4r	.	.	.
=150	=150	=150	=150	=150	=150	=150	=150
4C/	.	4G\ 4g\	.	4G/ 4e-/ 4cc/	.	2r	.
4GG/	.	4G\ 4g\	.	4G/ 4d/ 4bn/	.	.	.
4C/	.	4G\ 4g\	.	4G/ 4e-/ 4cc/	.	4r	.
4r	.	4r	.	4r	.	4g\ 4ee-\ 4ccc\	f
=151	=151	=151	=151	=151	=151	=151	=151
4GG/	.	4G\ 4g\	.	4G/ 4d/ 4bn/	.	2r	.
4C/	.	4G\ 4g\	.	4G/ 4e-/ 4cc/	.	.	.
4GG/	.	4G\ 4g\	.	4G/ 4d/ 4bn/	.	4r	.
4r	.	4r	.	4r	.	4g\ 4dd\ 4bbn\	.
=152	=152	=152	=152	=152	=152	=152	=152
4C/	.	4G\ 4g\	.	4G/ 4e-/ 4cc/	.	2r	.
4GG/	.	4G\ 4g\	.	4G/ 4d/ 4bn/	.	.	.
4C/	.	4G\ 4g\	.	4G/ 4e-/ 4cc/	.	4r	.
4r	.	4r	.	4r	.	4g\ 4ee-\ 4ccc\	.
=153	=153	=153	=153	=153	=153	=153	=153
4AA-/	.	4A-\ 4a-\	.	4A-/ 4e-/ 4cc/	.	2r	.
4D-\	.	4A-\ 4a-\	.	4A-/ 4f/ 4dd-/	.	.	.
4AA-/	.	4A-\ 4a-\	.	4A-/ 4e-/ 4cc/	.	4r	.
4r	.	4r	.	4r	.	4a-\ 4ee-\ 4ccc\	.
=154	=154	=154	=154	=154	=154	=154	=154
4D-\	.	4A-\ 4a-\	.	4A-/ 4f/ 4dd-/	.	2r	.
4AA-/	.	4A-\ 4a-\	.	4A-/ 4e-/ 4cc/	.	.	.
4D-\	.	4A-\ 4a-\	.	4A-/ 4f/ 4dd-/	.	4r	.
4r	.	4r	.	4r	.	4a-\ 4ff\ 4ddd-\	.
=155	=155	=155	=155	=155	=155	=155	=155
4BB-/	.	4B-/	.	4B-/ 4f/ 4dd/	.	2r	.
4E-\	.	4b-\	.	4B-/ 4g-/ 4ee-/	.	.	.
4BB-/	.	4b-\	.	4B-/ 4f/ 4dd/	.	4r	.
4r	.	4r	.	4r	.	4b-\ 4ff\ 4ddd\	.
=156	=156	=156	=156	=156	=156	=156	=156
4GG-/	ff	4b-\	ff	4e-/ 4ee-/	ff	4r	.
4r	.	4r	.	4r	.	4eee-\	ff
4GG/	.	4G/ 4en/	.	4g\ 4b-\ 4een\	.	4r	.
4r	.	4r	.	4r	.	4ddd-\	.
=157	=157	=157	=157	=157	=157	=157	=157
4AA-/	.	4A-\ 4f\	.	4f\ 4cc\ 4ff\	.	4r	.
4r	.	4r	.	4r	.	4ccc\	.
4AA-/	.	4A-\ 4f#\	.	4cc\ 4ff#\	.	4r	.
4r	.	4r	.	4r	.	4ccc\	.
=158	=158	=158	=158	=158	=158	=158	=158
4GG/	.	4G\ 4g\	.	4bn\ 4gg\	.	4g\ 4dd\ 4bbn\	>
4r	.	4r	.	4r	.	2g/	.
2r	.	2r	.	2r	.	.	.
.	.	.	.	.	.	4g/	.
=159	=159	=159	=159	=159	=159	=159	=159
4C/	p	8En/L	p	1r	.	(8g\L	p
.	.	8G/	.	.	.	8een\J)	.
4r	.	8c/	.	.	.	2een\	.
.	.	8G/J	.	.	.	.	.
4GG/	.	8Bn/L	.	.	.	.	.
.	.	8G/	.	.	.	.	.
4r	.	8F/	.	.	.	4dd\	.
.	.	&(8G/J&)	.	.	.	.	.
=160	=160	=160	=160	=160	=160	=160	=160
.	.	.	.	.	.	(cc#q\	.
.	.	.	.	.	.	ddq\)	.
.	.	.	.	.	.	eenq\)	.
4C/	.	8F/L	.	8r	.	2dd\	.
.	.	8G/	.	8gg\L	p	.	.
4r	.	8F/	.	8gg\	.	.	.
.	.	8G/J	.	8gg\J	.	.	.
2r	.	8En/L	.	(8ff#\L	.	4cc\	.
.	.	8G/	.	8gg\)	.	.	.
.	.	8c/	.	8een\	.	4g/	.
.	.	&(8en/J&)	.	8cc\J	.	.	.
=161	=161	=161	=161	=161	=161	=161	=161
4BBn/	.	8d/L	.	4g/	.	(8g\L	.
.	.	8G/	.	.	.	8ff\J	.
4r	.	8d/	.	4r	.	2ff\	.
.	.	8G/J	.	.	.	.	.
4C/	.	8c/L	.	2r	.	.	.
.	.	8G/	.	.	.	.	.
4r	.	8c/	.	.	.	&(4een\&)	.
.	.	&(8G/J&)	.	.	.	.	.
=162	=162	=162	=162	=162	=162	=162	=162
.	.	.	.	.	.	(ddq\	.
.	.	.	.	.	.	&(eenq\&)	.
.	.	.	.	.	.	ffq\	.
4GG/	.	8c/L	.	8r	.	2een\	.
.	.	8G/	.	8gg\L	.	.	.
4r	.	8c/	.	8gg\	.	.	.
.	.	8G/J	.	8gg\J	.	.	.
2r	.	8Bn/L	.	(8ff#\L	.	4dd\)	.
.	.	8G/	.	8gg\	.	.	.
.	.	8F/	.	8aan\	.	4g/	.
.	.	&(8G/J&)	.	8gg\J)	.	.	.
=163	=163	=163	=163	=163	=163	=163	=163
1r	.	8En/L	.	4gg\	.	8g\L	.
.	.	8G/	.	.	.	8gg\J)	.
.	.	8en/	.	(4g/	.	2gg\	.
.	.	8G/J	.	.	.	.	.
.	.	8d/L	.	4an/	.	.	.
.	.	8G/	.	.	.	.	.
.	.	8d/	.	4bn\	.	[4ff\	.
.	.	8G/J	.	.	.	.	.
=164	=164	=164	=164	=164	=164	=164	=164
2r	.	8c/L	.	4cc\	.	4ff\]	.
.	.	8En/	.	.	.	.	.
.	.	8c/	.	4en/	.	2een\	.
.	.	8En/J	.	.	.	.	.
4EEn/	.	8Bn/L	.	4f#/	.	.	.
.	.	8En/	.	.	.	.	.
4r	.	8Bn/	.	4g#/	.	[4dd\	.
.	.	8En/J	.	.	.	.	.
=165	=165	=165	=165	=165	=165	=165	=165
4AAn/	.	8c/L	.	4an/	.	8dd\L]	.
.	.	8En/	.	.	.	(8cc\	.
4r	.	8c/	.	4en/	.	8bn\)	.
.	.	8En/J	.	.	.	8a-\J	.
4D\	.	8An/L	.	4c/)	.	8g/L	.
.	.	8D/	.	.	.	8f#/	.
4r	.	8An/	.	8c/L	.	8cc/	.
.	.	8D/J	.	8c/J	.	8f#/J	.
=166	=166	=166	=166	=166	=166	=166	=166
(4GG/	<	2.G/	<	8Bn/L	<	8g\L	<
.	.	.	.	(8g/	.	(8gg\	.
4F\	.	.	.	8f#/	.	8ff#\	.
.	.	.	.	8g/J	.	8gg\J	.
4D\	.	.	.	8f#/L	.	8ff#\L	.
.	.	.	.	8g/	.	8gg\	.
4BBn/)	.	4F/ 4G/	.	8an/	.	8aan\	.
.	.	.	.	8g/J)	.	8gg\J)	.
=167	=167	=167	=167	=167	=167	=167	=167
8C\L	.	8En/L 8G/	.	(8g\L	.	[1gg	.
8G\J	.	8en/J	.	8een\J	.	.	.
2G\	.	2en\	.	2een\	.	.	.
4F\	.	&(4d\&)	.	4dd\	.	.	.
=168	=168	=168	=168	=168	=168	=168	=168
.	.	c#q\	.	cc#q\	.	.	.
.	.	dq\	.	ddq\)	.	.	.
.	.	e#q\	.	eenq\	.	.	.
2F\	.	2d\	.	2dd\	.	4gg\]	.
.	.	.	.	.	.	(ff#q\	.
.	.	.	.	.	.	&(ggq\&)	.
.	.	.	.	.	.	8bbn\L	.
.	.	.	.	.	.	8gg\J	.
8En\L	.	4c\)	.	&(4cc\&)	.	8ccc\L	.
8G\	.	.	.	.	.	8gg\	.
8En\	.	4En/	.	4g/	.	8eeen\	.
8C\J	.	.	.	.	.	8gg\J)	.
=169	=169	=169	=169	=169	=169	=169	=169
8BBn\L	.	(8D/L	.	(8g\L	.	[1gg	.
8Bn\J	.	8d/J	.	8ff\J	.	.	.
4Bn\	.	2d\	.	2ff\	.	.	.
4c\	.	.	.	.	.	.	.
4F#\	.	&(4c\&)	.	4een\	.	.	.
=170	=170	=170	=170	=170	=170	=170	=170
.	.	Bnq\	.	ddq\	.	.	.
.	.	cq\	.	eenq\)	.	.	.
.	.	dq\	.	ffq\	.	.	.
8GG/L	.	2c\	.	2een\	.	1gg]	.
8G/	.	.	.	.	.	.	.
8G/	.	.	.	.	.	.	.
8G/J	.	.	.	.	.	.	.
(8F#\L	.	4Bn/)	.	&(4dd\&)	.	.	.
8G\	.	.	.	.	.	.	.
8F\	.	8r	.	4g/	.	.	.
8G\J)	.	8Bn/	.	.	.	.	.
=171	=171	=171	=171	=171	=171	=171	=171
.	.	.	.	.	.	(ff#q\	.
.	.	.	.	.	.	ggq\)	.
(2En\	.	(8c/L	.	(8g\L	.	8gg\L)	.
.	.	8G/	.	8gg\J)	.	8ggg\J	.
.	.	8en/	.	2gg\	.	2ggg\	.
.	.	8c/J	.	.	.	.	.
2D\	.	8c/L	.	.	.	.	.
.	.	8Bn/	.	.	.	.	.
.	.	8An/	.	[4ff\	.	[4fff\	.
.	.	&(8Bn/J&)	.	.	.	.	.
=172	=172	=172	=172	=172	=172	=172	=172
2C/	.	8c/L	.	4ff\]	.	4fff\]	.
.	.	8En/	.	.	.	.	.
.	.	8c/	.	2een\	.	2eeen\	.
.	.	8An/J	.	.	.	.	.
2BBn/)	.	8An/L	.	.	.	.	.
.	.	8G#/	.	.	.	.	.
.	.	8F#/	.	[4dd\	.	[4ddd\	.
.	.	&(8G#/J&)	.	.	.	.	.
=173	=173	=173	=173	=173	=173	=173	=173
2AAn/	.	4An/	.	4dd\]	.	(8ddd\L]	.
.	.	.	.	.	.	8ccc\	.
.	.	4En/	.	(4cc\	.	8bbn\	.
.	.	.	.	.	.	8aan\J	.
2DD/	.	4C/	.	4an/	.	8aan\L	.
.	.	.	.	.	.	8gg\	.
.	.	4c\)	.	4f#/)	.	8gg\	.
.	.	.	.	.	.	8ff#\J	.
=174	=174	=174	=174	=174	=174	=174	=174
8GG/L	p	8Bn/L	p	8g/L	p	[2gg\	p
8G/	.	8Bn/	.	8d/	.	.	.
8G/	.	8Bn/	.	8d/	.	.	.
8G/J	.	8Bn/J	.	8d/J	.	.	.
4G\	.	4Bn/	.	4d/	.	8gg\L]	.
.	.	.	.	.	.	16ff#\L	.
.	.	.	.	.	.	16gg\JJ	.
4r	.	4r	.	4r	.	16ff#\LL	.
.	.	.	.	.	.	16gg\	.
.	.	.	.	.	.	16ccc\	.
.	.	.	.	.	.	&(16bbn\JJ&)	.
=175	=175	=175	=175	=175	=175	=175	=175
8r	.	8r	.	8r	.	4gg#\	.
8G\L	.	8c\L	.	8f#/L	.	.	.
8G\	.	8c\	.	8f#/	.	[4aan\	.
8G\J	.	8c\J	.	8f#/J	.	.	.
4G\	.	4c\	.	4f#/	.	8aan\L]	.
.	.	.	.	.	.	16gg#\L	.
.	.	.	.	.	.	16aan\JJ	.
4r	.	4r	.	4r	.	16gg#\LL	.
.	.	.	.	.	.	16aan\	.
.	.	.	.	.	.	16ddd\	.
.	.	.	.	.	.	16ccc\JJ	.
=176	=176	=176	=176	=176	=176	=176	=176
4r	<	4r	<	4r	<	16aa#\LL	<
.	.	.	.	.	.	16bbn\	<
.	.	.	.	.	.	16aa#\	.
.	.	.	.	.	.	16bbn\JJ	.
4G\	<	4d\	<	4f/	<	16aa#\LL	.
.	.	.	.	.	.	16bbn\	.
.	.	.	.	.	.	16eeen\	.
.	.	.	.	.	.	16ddd\JJ	.
4r	.	4r	.	4r	.	16bbn\LL	.
.	.	.	.	.	.	16ccc\	.
.	.	.	.	.	.	16bbn\	.
.	.	.	.	.	.	16ccc\JJ	.
4G\	.	4c\	.	4en/	.	16bbn\LL	.
.	.	.	.	.	.	16ccc\	.
.	.	.	.	.	.	16fff\	.
.	.	.	.	.	.	16eeen\JJ	.
=177	=177	=177	=177	=177	=177	=177	=177
4r	.	4r	.	4r	.	16ddd\LL	.
.	.	.	.	.	.	16eeen\	.
.	.	.	.	.	.	16ddd\	.
.	.	.	.	.	.	16ccc#\JJ	.
4GG/	f	4Bn/	f	4f/ 4dd/	f	16ddd\LL	f
.	.	.	.	.	.	16eeen\	p
.	.	.	.	.	.	16fff\	.
.	.	.	.	.	.	16eeen\JJ	.
2r	.	2r	.	2r	.	16fff\LL	.
.	.	.	.	.	.	16ddd\	.
.	.	.	.	.	.	16bbn\	.
.	.	.	.	.	.	16gg\JJ	.
.	.	.	.	.	.	16ff\LL	.
.	.	.	.	.	.	16dd\	.
.	.	.	.	.	.	16bn\	.
.	.	.	.	.	.	16f\JJ)	.
=178	=178	=178	=178	=178	=178	=178	=178
4C/	p	4G/	p	4c/	p	4en/	.
4.En\	.	4.G/	.	4.c/	.	4.g/	.
8En\L	.	8G/L	.	8c/L	.	8g/L	.
8D\	.	8G/	.	8f/	.	8bn/	.
8C\J	.	8G/J	.	8en/J	.	8cc/J	.
=179	=179	=179	=179	=179	=179	=179	=179
(4BBn/	.	(4G/	.	(4d/	.	(8dd\L	.
.	.	.	.	.	.	8bn\J	.
4D\	.	4Bn/	.	4f/	.	2g/	.
4GG/	.	4d\	.	4Bn/	.	.	.
.	.	.	.	.	.	gq\	.
4BBn/)	.	4G/)	.	4d/)	.	8f/L	.
.	.	.	.	.	.	16en/L	.
.	.	.	.	.	.	&(16f/JJ&)	.
=180	=180	=180	=180	=180	=180	=180	=180
4C/	p	4G/	p	4G/	p	4en/	p
4.En\	.	4.G/	.	4.c/	.	4.g/	.
8En\L	.	8G/L	.	8c/L	.	8g/L	.
8D\	.	8G/	.	8f/	.	8bn/	.
8C\J	.	8G/J	.	8en/J	.	8cc/J	.
=181	=181	=181	=181	=181	=181	=181	=181
(4BBn/	.	(4G/	.	(4d/	.	8dd\L	.
.	.	.	.	.	.	8bn\J	.
4D\	.	4Bn/	.	4f/	.	2g/	.
4GG/	.	4d\	.	4Bn/	.	.	.
.	.	.	.	.	.	gq\	.
4BBn/)	.	4G/)	.	4d/)	.	8f/L	.
.	.	.	.	.	.	16en/L	.
.	.	.	.	.	.	&(16f/JJ&)	.
=182	=182	=182	=182	=182	=182	=182	=182
4C/	.	4G/	.	4G/	.	4en/	.
4.En\	.	4.G/	.	4.c/	.	4.g/	.
8En\L	.	8G/L	.	8c/L	.	8g/L	.
8D\	.	8G/	.	8f/	.	8bn/	.
8C\J	.	8G/J	.	8en/J	.	8cc/J	.
=183	=183	=183	=183	=183	=183	=183	=183
(8C\L	.	(8G/L	.	8e-/	.	8cc\L	.
8F\J)	.	8An/J)	.	(4c/	.	8an\J)	.
4.F\	.	4.An/	.	.	.	4.an/	.
.	.	.	.	8c#/	.	.	.
.	.	.	.	8d/L)	.	.	.
8F\L	.	8An/L	.	8d/	.	8an\L	.
8En\	.	8An/	.	8g/	.	8cc#\	.
8D\J	.	8An/J	.	8f/J	.	8dd\J	.
=184	=184	=184	=184	=184	=184	=184	=184
2G\	<	4G/	<	(2en/	<	(4dd\	<
.	.	(4g\	.	.	.	2cc\	.
4F#\	.	4an\	.	4e-/	.	.	.
4F\	.	4a-\)	.	4d/)	.	4bn\)	.
=185	=185	=185	=185	=185	=185	=185	=185
8En\	p	8g\	p	8en/	p	8cc\	p
4E\	.	4c\	.	4g/	.	4gg\	.
[8E\	.	[8c\	.	[8g/	.	[8gg\	.
8E\L]	.	8c/L]	.	8g/L]	.	8gg\L]	.
8En\	.	8c/	.	8g/	.	8gg\	.
8D\	.	8G/	.	8bn/	.	8ff\	.
8C\J	.	8G/J	.	8cc/J	.	8een\J	.
=186	=186	=186	=186	=186	=186	=186	=186
8FF/	.	8c\	.	8an/	.	8dd\	.
4F\	.	4d\	.	4a/	.	4aan\	.
[8F\	.	[8d\	.	[8a/	.	[8aan\	.
8F\L]	.	8d/L]	.	8a\L]	.	8aan\L]	.
8F\	.	8d/	.	8an\	.	8aan\	.
8En\	.	8An/	.	8cc#\	.	8gg\	.
8D\J	.	8An/J	.	8dd\J	.	8ff\J	.
=187	=187	=187	=187	=187	=187	=187	=187
8GG/	.	8c#\	.	8b-\	.	8een\	.
4G\	.	4c#\	.	4b-\	.	4bb-\	.
[8G\	.	[8c#\	.	[8b-\	.	[8bb-\	.
8G\L]	.	8c#\L]	.	8b-/L]	.	8bb-\L]	.
8G\	.	8c#\	.	8b-/	.	8bb-\	.
8F\	.	8d\	.	8an/	.	8aan\	.
8En\J	.	8d\J	.	8g#/J	.	8gg#\J	.
=188	=188	=188	=188	=188	=188	=188	=188
8F\L	.	8d\L	.	8an/L	.	8aan\L	.
8F\	.	8d\	.	8an/	.	8aan\	.
8F\	.	8d\	.	8an/	.	8aan\	.
8En\J	.	8d\J	.	8g#/J	.	8gg#\J	.
8F\L	.	8d\L	.	8an/L	.	8aan\L	.
8F\	.	8d\	.	8an/	.	8aan\	.
8F\	.	8d\	.	8an/	.	8aan\	.
8En\J	.	8d\J	.	8g#/J	.	8gg#\J	.
=189	=189	=189	=189	=189	=189	=189	=189
(2F\	<	(4d\	<	(4an/	<	4aan\	<
.	.	4c\	.	4cc\	.	2aan\	.
2E-\	.	4An/	.	4an/	.	.	.
.	.	4G/)	.	4g/)	.	[4ccc\	.
=190	=190	=190	=190	=190	=190	=190	=190
2D\	.	(2F#/	.	2f#/	.	4ccc\]	.
.	.	.	.	.	.	2eee-\	.
2C/)	.	2An/)	.	2an/	.	.	.
.	.	.	.	.	.	(4f#/	.
=191	=191	=191	=191	=191	=191	=191	=191
4BBn/	.	4D/	.	4d/	.	&((16g/LL&)	.
.	.	.	.	.	.	16G/	.
.	.	.	.	.	.	16An/	.
.	.	.	.	.	.	16G/JJ	.
4r	.	4r	.	4r	.	16Bn/LL	.
.	.	.	.	.	.	16An/	.
.	.	.	.	.	.	16c/	.
.	.	.	.	.	.	16Bn/JJ	.
2r	.	2r	.	2r	.	16d/LL	.
.	.	.	.	.	.	16c/	.
.	.	.	.	.	.	16en/	.
.	.	.	.	.	.	16d/JJ	.
.	.	.	.	.	.	16f/LL	.
.	.	.	.	.	.	16en/	.
.	.	.	.	.	.	16g/	.
.	.	.	.	.	.	16f/JJ	.
=192	=192	=192	=192	=192	=192	=192	=192
(4F\	.	(4f\	.	2r	.	16an/LL	.
.	.	.	.	.	.	16g/	.
.	.	.	.	.	.	16bn/	.
.	.	.	.	.	.	16an/JJ	.
4D\	.	4d\	.	.	.	16cc\LL	.
.	.	.	.	.	.	16bn\	.
.	.	.	.	.	.	16dd\	.
.	.	.	.	.	.	16cc\JJ	.
4BBn/	.	4Bn/	.	4r	.	16een\LL	.
.	.	.	.	.	.	16dd\	.
.	.	.	.	.	.	16ff\	.
.	.	.	.	.	.	16een\JJ	.
4FF/)	.	4F/)	.	(4Bn/	.	16gg\LL	.
.	.	.	.	.	.	16ff#\	.
.	.	.	.	.	.	16aan\	.
.	.	.	.	.	.	16gg\JJ)	.
=193	=193	=193	=193	=193	=193	=193	=193
4EEn/	.	4En/	.	4c/)	.	8gg\	.
.	.	.	.	.	.	4ccc\	.
4r	.	4r	.	4r	.	.	.
.	.	.	.	.	.	4eeen\	.
2r	.	8r	.	8r	.	.	.
.	.	8en\L	.	8cc\L	.	4ggg\	.
.	.	8c\	.	8een\	.	.	.
.	.	8en\J	.	8cc\J	.	8cccc\	.
=194	=194	=194	=194	=194	=194	=194	=194
8G/L	f	8d/L	f	8ff\L	f	2G/	.
8GG/	.	8F/	.	8dd\	.	.	.
8GG/	.	8G/	.	8bn\	.	.	.
8GG/J	.	8Bn/J	.	8g\J	.	.	.
.	.	.	.	.	.	ff#q\	.
.	.	.	.	.	.	ggq\)	.
8GG/L	.	8d\L	.	8f/L	.	2gg\	f
8GG/	.	8f\	.	8d/	.	.	.
8GG/	.	8g\	.	8Bn/	.	.	.
8GG/J	.	8G\J 8f\	.	8bn/J	.	.	.
=195	=195	=195	=195	=195	=195	=195	=195
4C/	.	4G/ 4en/	.	4cc\	.	4cc\	.
4r	.	4r	.	4r	.	4r	.
4G\	pp	4g\	pp	4g/	pp	4g/	pp
4En\	.	4en\	.	4en/	.	4en/	.
=196	=196	=196	=196	=196	=196	=196	=196
4C/	.	4c\	.	4c/	.	4c/	.
4C#/	.	4c#\	.	4c#/	.	4c#/	.
4D\	.	4d\	.	4d/	.	4d/	.
4En\	.	4en\	.	4en/	.	4en/	.
=197	=197	=197	=197	=197	=197	=197	=197
4F\	.	4f\	.	4f/	.	4f/	.
4r	.	4r	.	4r	.	4r	.
4AA-/	.	4A-/	.	4A-/	.	4A-/	.
4r	.	4r	.	4r	.	4r	.
=198	=198	=198	=198	=198	=198	=198	=198
4GG/	.	4G/	.	4G/	.	4G/	.
4r	.	4r	.	4r	.	4r	.
4GG/	f	4d\	f	4G/ 4f/	.	4G/ 4d/ 4b-/	f
4GG/	.	4d\	.	4G/ 4f/	.	4G/ 4d/ 4b-/	.
=199	=199	=199	=199	=199	=199	=199	=199
4C/	.	4c\	.	4G/ 4en/	.	4G/ 4en/ 4cc/	.
4r	.	4r	.	4r	.	4r	.
4G\	pp	4g\	pp	4g/	pp	4g/	pp
4E-\	.	4e-\	.	4e-/	.	4e-/	.
=200	=200	=200	=200	=200	=200	=200	=200
4C/	.	4c\	.	4c/	.	4c/	.
4C#/	.	4c#\	.	4c#/	.	4c#/	.
4D\	.	4d\	.	4d/	.	4d/	.
4E-\	.	4e-\	.	4e-/	.	4e-/	.
=201	=201	=201	=201	=201	=201	=201	=201
4F\	.	4f\	.	4f/	.	4f/	.
4r	.	4r	.	4r	.	4r	.
4GG/	.	4G/	.	4G/	.	4G/	.
4r	.	4r	.	4r	.	4r	.
=202	=202	=202	=202	=202	=202	=202	=202
4AA-/	.	4A-/	.	4A-/	.	4A-/	.
4r	.	4r	.	4r	.	4r	.
4AA-/	f	4A-/	f	4A-/ 4g-/	f	4A-/ 4e-/ 4cc/	f
4AA-/	.	4A-/	.	4A-/ 4g-/	.	4A-/ 4e-/ 4cc/	.
=203	=203	=203	=203	=203	=203	=203	=203
2.AA-/	ff	2.A-/	ff	2.A-/ 2.f/	ff	2A-/ 2f/ [2dd-/	ff
.	.	.	.	.	.	8dd-\L]	.
.	.	.	.	.	.	(ee-q\	.
.	.	.	.	.	.	dd-q\)	.
.	.	.	.	.	.	ccq\)	.
.	.	.	.	.	.	8dd-\	.
4AAn/	.	4An/	.	(4g-/	.	8ff\	.
.	.	.	.	.	.	8ee-\J	.
=204	=204	=204	=204	=204	=204	=204	=204
2.BB-/	.	2.B-/	.	4g-/	.	(2ee-\	.
.	.	.	.	4f/	.	.	.
.	.	.	.	4b-\	.	8dd\L	.
.	.	.	.	.	.	8dd\	.
4BB-/	.	4B-/	.	[4a-/	.	8gg-\	.
.	.	.	.	.	.	&(8ff\J&)	.
=205	=205	=205	=205	=205	=205	=205	=205
(4C-/	.	(4c-\	.	8a-/]	.	8ff\L	.
.	.	.	.	4e-/	.	8ee-\	.
4C/	.	4c\	.	.	.	8aa-\	.
.	.	.	.	8an/	.	8gg-\J	.
4D-\	.	4d-\	.	8b-\	.	8gg-\L	.
.	.	.	.	4f/	.	&(8ff\&)	.
4D\)	.	4d\)	.	.	.	8bb-\	.
.	.	.	.	8bn\	.	8aa-\J	.
=206	=206	=206	=206	=206	=206	=206	=206
(4E-\	.	(4e-\	.	8cc\	.	8aa-\L	.
.	.	.	.	4g/	.	8gg\	.
4En\	.	4en\	.	.	.	8ccc\	.
.	.	.	.	8cc\	.	8bb-\J	.
4F\	.	4f\	.	8cc\L	.	8bb-\L	.
.	.	.	.	8cc\	.	&(8aa-\&)	.
4F#\)	.	4f#\)	.	8dd\	.	8ddd\	.
.	.	.	.	8cc\J)	.	8ccc\J	.
=207	=207	=207	=207	=207	=207	=207	=207
4G\	.	8g\	.	8bn\	.	8ccc\L	.
.	.	8d\L	.	8bn\L	.	8bbn\J	.
4r	.	8d\	.	8bn\	.	2ggg\	.
.	.	8d\	.	8bn\	.	.	.
4A-\	.	8r	.	8r	.	.	.
.	.	8c\	.	8cc\	.	.	.
4r	.	8c\	.	8cc\	.	16fff\LL	.
.	.	.	.	.	.	16eee-\	.
.	.	8c\J	.	8cc\J	.	16ddd\	.
.	.	.	.	.	.	&(16ccc\JJ&)	.
=208	=208	=208	=208	=208	=208	=208	=208
4F\	.	8r	.	8r	.	2aaa-\	.
.	.	8c\L 8d\	.	8aa-/L	.	.	.
4r	.	8c\ 8d\	.	8aa-/	.	.	.
.	.	8c\ 8d\	.	8aa-/	.	.	.
4G\	.	8r	.	8r	.	2bn\	.
.	.	8d\	.	8G/ 8f/	.	.	.
4r	.	8d\	.	8G/ 8f/	.	.	.
.	.	8d\J	.	8G/J 8f/	.	.	.
=209	=209	=209	=209	=209	=209	=209	=209
8C\L	.	4c\	.	4G/ 4e-/	.	4cc\	.
8G\	p	.	.	.	.	.	.
8F\	.	2G\ 2g\	p	8r	.	8r	.
8G\J	.	.	.	8bn\	p	8bbn\	p
8E-\L	.	.	.	(8cc/L	.	8ccc\L	.
8G\	.	.	.	8g/)	.	8gg\)	.
8BBn\	.	[4G\ [4g\	.	8r	.	8r	.
8G\J	.	.	.	8f/J	.	8ff\J	.
=210	=210	=210	=210	=210	=210	=210	=210
8C\L	.	4G\] 4g\]	.	(8e-/L	.	(8ee-\L	.
8G\	.	.	.	8g/	.	8gg\	.
8F\	.	2G\ 2g\	.	8r	.	8r	.
8G\J	.	.	.	8bn/J	.	8bbn\J	.
8E-\L	.	.	.	8cc/L	.	8ccc\L	.
8G\	.	.	.	8g/	.	&(8gg\&)	.
8BBn\	.	[4G\ [4g\	.	8r	.	8r	.
8G\J	.	.	.	8f/J	.	8ff\J	.
=211	=211	=211	=211	=211	=211	=211	=211
8C/L	<	8G/L] 8g/]	.	8e-/L	<	8ee-\L	<
8C/	<	8C/J	<	8g/	<	8gg\	<
8BB-/	.	2C/ 2c/	.	8en/	.	8een\	.
8C/J	.	.	.	8g/J	.	8gg\J	.
8AA-/L	.	.	.	8f/L	.	8ff\L	.
8C/	.	.	.	8a-/	.	8aa-\	.
8EEn/	.	[4C/ [4c/	.	8g/	.	8gg\	.
8C/J	.	.	.	8b-/J	.	8bb-\J	.
=212	=212	=212	=212	=212	=212	=212	=212
8FF/L	.	(8C/L] 8c/]	.	8a-/L	.	8aa-\L	.
8F/	.	8A-/)	.	8cc/	.	8ccc\	.
8FF/	.	8r	.	8d/	.	8dd\	.
8F/J	.	8A-/	.	8f/J	.	8ff\J	.
8GG/L	.	8r	.	8e-/L	.	8ee-\L	.
8G/	.	8G/	.	8g/	.	8gg\	.
8GG/	.	8r	.	8Bn/	.	8bn\	.
8G/J	.	8F/J 8G/	.	8d/J	.	8dd\J	.
=213	=213	=213	=213	=213	=213	=213	=213
8C/L	f	16c/LL	f	8e-\L	f	8cc\L	f
.	.	16c/	.	.	.	.	.
8C/	.	16E-/	.	8gg\	.	8ccc\	.
.	.	16E-/JJ	.	.	.	.	.
8BB-/	.	16c/LL	.	8een\	.	8ccc\	.
.	.	16c/	.	.	.	.	.
8C/J	.	16En/	.	8gg\J	.	8ccc\J	.
.	.	16En/JJ	.	.	.	.	.
8AA-/L	.	16c/LL	.	8ff\L	.	8ccc\L	.
.	.	16c/	.	.	.	.	.
8C/	.	16F/	.	8aa-\	.	8ccc\	.
.	.	16F/JJ	.	.	.	.	.
8EEn/	.	16c/LL	.	8gg\	.	8ccc\	.
.	.	16c/	.	.	.	.	.
8C/J	.	16G/	.	8bb-\J	.	8ccc\J	.
.	.	16G/JJ	.	.	.	.	.
=214	=214	=214	=214	=214	=214	=214	=214
8FF/L	.	16c/LL	.	8aa-\L	.	8ccc\	.
.	.	16c/	.	.	.	.	.
8F/	.	16A-/	.	8ccc\	.	4aaa-\	.
.	.	16A-/JJ	.	.	.	.	.
8FF/	.	16c/LL	.	8dd\	.	.	.
.	.	16c/	.	.	.	.	.
8F/J	.	16A-/	.	8ff\J	.	8fff\	.
.	.	16A-/JJ	.	.	.	.	.
8GG/L	.	16c\LL	.	8ee-\L	.	8eee-\L	.
.	.	16c\	.	.	.	.	.
8G/	.	16e-\	.	8gg\	.	8ggg\	.
.	.	16e-\JJ	.	.	.	.	.
8GG/	.	16d\LL	.	8bn\	.	8bbn\	.
.	.	16d\	.	.	.	.	.
8G/J	.	16f\	.	8dd\J	.	8ddd\J	.
.	.	16f\JJ	.	.	.	.	.
=215	=215	=215	=215	=215	=215	=215	=215
8C\L	ff	4E-/	ff	4cc\	ff	[2ccc\	ff
8c\	.	.	.	.	.	.	.
8c\	.	[4e-\	.	[4g/	.	.	.
8c\J	.	.	.	.	.	.	.
8c\L	.	8e-\L]	.	8g/L]	.	8ccc\L]	.
.	.	.	.	.	.	(dddq\	.
.	.	.	.	.	.	cccq\)	.
.	.	.	.	.	.	bbnq\)	.
8c\	.	(8e-\	.	8g/	.	8ccc\	.
8c\	.	8f\	.	8bn/	.	8eee-\	.
8c\J	.	8f\J	.	8bn/J	.	8ddd\J	.
=216	=216	=216	=216	=216	=216	=216	=216
8c\L	.	8e-\L	.	8cc/L	.	8ccc\L	.
8c\	.	8e-\	.	8g/	.	(8ccc\	.
8c\	.	8f\	.	8bn/	.	8eee-\	.
8c\J	.	8f\J	.	8bn/J	.	8ddd\J	.
8c\L	.	8e-\L	.	8cc/L	.	8ccc\L	.
8c\	.	8e-\	.	8g/	.	8ccc\	.
8c\	.	8f\	.	8bn/	.	8eee-\	.
8c\J	.	8f\J	.	8bn/J	.	&(8ddd\J&)	.
=217	=217	=217	=217	=217	=217	=217	=217
8c\L	.	4e-\	.	4cc\	.	4ccc\	.
8C\	.	.	.	.	.	.	.
8C\	.	4r	.	4r	.	4r	.
8C\J	.	.	.	.	.	.	.
8C/L	.	8r	.	8r	.	8r	.
8C/	.	8G/L	.	8e-/L	.	8cc\L	.
8C/	.	8Bn/	.	8g/	.	8ee-\	.
8C/J	.	8Bn/J	.	8f/J	.	8dd\J	.
=218	=218	=218	=218	=218	=218	=218	=218
8C/L	.	4c\	.	4e-/	.	4cc\	.
8CC/	.	.	.	.	.	.	.
8CC/	.	4r	.	4r	.	4r	.
8CC/J	.	.	.	.	.	.	.
8CC/L	.	8r	.	2r	.	2r	.
(8CC/	.	8C/L	.	.	.	.	.
8EE-/	.	8E-/	.	.	.	.	.
8DD/J	.	8D/J	.	.	.	.	.
=219	=219	=219	=219	=219	=219	=219	=219
4CC/	ff	4C/	ff	4c/	ff	4G/ 4e-/ 4cc/	ff
4r	.	4r	.	4r	.	4r	.
4CC/ 4C/	.	4C/ 4c/	.	4c/ 4e-/	.	4G/ 4e-/ 4cc/	.
4r	.	4r	.	4r	.	4r	.
=220	=220	=220	=220	=220	=220	=220	=220
2.CC/ 2.C/	.	2.C/ 2.c/	.	2.c/ 2.e-/	.	2.G/ 2.e-/ 2.cc/	.
==	==	==	==	==	==	==	==
*-	*-	*-	*-	*-	*-	*-	*-
!!!ENC: Craig Stuart Sapp
!!!END: 2006/02/01/
